!!!COM: Haydn, Franz Joseph
!!!OPR: Symphony in G Minor
!!!OTL: Affettuoso 
!!!OMV: 4
!!!SCT: H I:83
!!!SCA: Thematisch-bibliographisches Werkevererzeichnis (A. van Hoboken)
!!!YOR: RISM H 3039, Choron Edition
!!!EED: Frances Bennion
!!!ENC: Frances Bennion
!!!CDT: 1732/3/31/-1809/5/31/
!!!OCY: Österreich
!!!YEC: Copyright (c) 1994, 2000 Center for Computer Assisted Research in the Humanities
!!!YEM: Rights to all derivative editions reserved.
!!!YEM: Refer to licensing agreement for further details.
!!!YEN: United States of America
**kern	**kern	**kern	**kern	**kern	**kern	**kern	**kern	**kern	**kern	**kern	**kern
*k[]	*k[f#]	*k[f#]	*k[f#]	*k[]	*k[f#]	*k[f#]	*k[f#]	*k[f#]	*k[f#]	*k[f#]	*k[f#]
*C:	*C:	*C:	*C:	*C:	*C:	*C:	*C:	*C:	*C:	*C:	*C:
*clefF	*clefC3	*clefF4	*clefF4	*clefF	*clefF	*clefF	*clefF	*clefF4	*clefF4	*clefF	*clefF
*M12/8	*M12/8	*M12/8	*M12/8	*M12/8	*M12/8	*M12/8	*M12/8	*M12/8	*M12/8	*M12/8	*M12/8
*tb8	*tb8	*tb8	*tb8	*tb8	*tb8	*tb8	*tb8	*tb8	*tb8	*tb8	*tb8
=0-	=0-	=0-	=0-	=0-	=0-	=0-	=0-	=0-	=0-	=0-	=0-
2..r	2..r	2..r	2..r	2..r	2..r	2..r	2..r	2..r	2..r	2..r	2..r
2r	2r	2r	2r	2r	2r	2r	2r	2r	2r	2r	2r
8r	8r	8r	8r	8r	8r	8r	8r	8r	8r	8g	8r
=1	=1	=1	=1	=1	=1	=1	=1	=1	=1	=1	=1
1.r	4G	4G	4G	1.r	1.r	1.r	1.r	1.r	1.r	4g	4B
.	8r	8r	8r	.	.	.	.	.	.	8a	8r
.	4G	4G	4G	.	.	.	.	.	.	4a	4c
.	8r	8r	8r	.	.	.	.	.	.	8b	8r
.	4G	4G	4G	.	.	.	.	.	.	4b	4d
.	8r	8r	8r	.	.	.	.	.	.	8cc	8e
.	4G	4G	4G	.	.	.	.	.	.	8a	8c
.	.	.	.	.	.	.	.	.	.	8g	8B
.	8r	8r	8r	.	.	.	.	.	.	8f#	8A
=2	=2	=2	=2	=2	=2	=2	=2	=2	=2	=2	=2
1.r	4G	4G	4G	1.r	1.r	1.r	1.r	1.r	1.r	8g	8B
.	.	.	.	.	.	.	.	.	.	8b	8d
.	8r	8r	8r	.	.	.	.	.	.	8dd	8g
.	4G	4G	4G	.	.	.	.	.	.	8dd	8b
.	.	.	.	.	.	.	.	.	.	8cc	8a
.	8r	8r	8r	.	.	.	.	.	.	8b	8g
.	4d	4D	4D	.	.	.	.	.	.	8a	8f#
.	.	.	.	.	.	.	.	.	.	8a	8f#
.	2r	2r	2r	.	.	.	.	.	.	8a	8f#
.	.	.	.	.	.	.	.	.	.	4a	4f#
.	.	.	.	.	.	.	.	.	.	8cc	8r
=3	=3	=3	=3	=3	=3	=3	=3	=3	=3	=3	=3
1.r	4e	4e	4e	1.r	1.r	1.r	1.r	1.r	1.r	4cc	4g
.	8r	8r	8r	.	.	.	.	.	.	8b	8r
.	4d	4d	4d	.	.	.	.	.	.	4b	4g
.	8r	8r	8r	.	.	.	.	.	.	8a	8r
.	[2c	[2c	[2c	.	.	.	.	.	.	8a	4.f#
.	.	.	.	.	.	.	.	.	.	8cc	.
.	.	.	.	.	.	.	.	.	.	8ee	.
.	.	.	.	.	.	.	.	.	.	4ee	4f#
.	8c]	8c]	8c]	.	.	.	.	.	.	.	.
.	8B	8B	8B	.	.	.	.	.	.	8dd	8g
=4	=4	=4	=4	=4	=4	=4	=4	=4	=4	=4	=4
1.r	4c	4c	4c	1.r	1.r	1.r	1.r	1.r	1.r	8dd	4e
.	.	.	.	.	.	.	.	.	.	8cc	.
.	8r	8r	8r	.	.	.	.	.	.	8b	8r
.	4d	4d	4d	.	.	.	.	.	.	8a	4f#
.	.	.	.	.	.	.	.	.	.	8g	.
.	8r	8r	8r	.	.	.	.	.	.	8a	8r
.	4G	4G	4G	.	.	.	.	.	.	4.a	4.f#
.	2r	2r	2r	.	.	.	.	.	.	.	.
.	.	.	.	.	.	.	.	.	.	8b	8g
.	.	.	.	.	.	.	.	.	.	8r	4r
.	.	.	.	.	.	.	.	.	.	8g	.
=5	=5	=5	=5	=5	=5	=5	=5	=5	=5	=5	=5
1.r	4G	4G	4G	1.r	1.r	1.r	8gg	1.r	1.r	8g	4B
.	.	.	.	.	.	.	8bb	.	.	8b	.
.	8r	8r	8r	.	.	.	8aa	.	.	8a	8r
.	4G	4G	4G	.	.	.	8aa	.	.	8a	4c
.	.	.	.	.	.	.	8ccc	.	.	8cc	.
.	8r	8r	8r	.	.	.	8bb	.	.	8b	8r
.	4G	4G	4G	.	.	.	8bb	.	.	8b	4d
.	.	.	.	.	.	.	8ddd	.	.	8dd	.
.	8r	8r	8r	.	.	.	8ccc	.	.	8cc	8e
.	4G	4G	4G	.	.	.	8aa	.	.	8a	8c
.	.	.	.	.	.	.	8gg	.	.	8g	8B
.	8r	8r	8r	.	.	.	8ff#	.	.	8f#	8A
=6	=6	=6	=6	=6	=6	=6	=6	=6	=6	=6	=6
1.r	4G	4G	4G	1.r	1.r	1.r	8gg	1.r	1.r	8g	8B
.	.	.	.	.	.	.	8bb	.	.	8b	8d
.	8r	8r	8r	.	.	.	8ddd	.	.	8dd	8g
.	4G	4G	4G	.	.	.	8ddd	.	.	8dd	8b
.	.	.	.	.	.	.	8ccc	.	.	8cc	8a
.	8r	8r	8r	.	.	.	8bb	.	.	8b	8g
.	4d	4D	4D	.	.	.	8aa	.	.	8a	8f#
.	.	.	.	.	.	.	8aa	.	.	8a	8f#
.	2r	2r	2r	.	.	.	8aa	.	.	8a	8f#
.	.	.	.	.	.	.	4aa	.	.	4a	4f#
.	.	.	.	.	.	.	8ccc	.	.	8cc	8r
=7	=7	=7	=7	=7	=7	=7	=7	=7	=7	=7	=7
1.r	4e	4e	4e	1.r	1.r	1.r	8ddd	1.r	1.r	8dd	4g
.	.	.	.	.	.	.	8ccc	.	.	8cc	.
.	8r	8r	8r	.	.	.	8bb	.	.	8b	8r
.	4d	4d	4d	.	.	.	8ccc	.	.	8cc	4g
.	.	.	.	.	.	.	8bb	.	.	8b	.
.	8r	8r	8r	.	.	.	8aa	.	.	8a	8r
.	[2c	[2c	[2c	.	.	.	8aa	.	.	8a	[2f#
.	.	.	.	.	.	.	8ccc	.	.	8cc	.
.	.	.	.	.	.	.	8eee	.	.	8ee	.
.	.	.	.	.	.	.	4eee	.	.	4ee	.
.	8c]	8c]	8c]	.	.	.	.	.	.	.	8f#]
.	8B	8B	8B	.	.	.	8ddd	.	.	8dd	8g
=8	=8	=8	=8	=8	=8	=8	=8	=8	=8	=8	=8
1.r	4c	4c	4c	1.r	2..r	2..r	8ddd	1.r	1.r	8dd	4e
.	.	.	.	.	.	.	8ccc	.	.	8cc	.
.	8r	8r	8r	.	.	.	8bb	.	.	8b	8r
.	4d	4d	4d	.	.	.	8aa	.	.	8a	4f#
.	.	.	.	.	.	.	8gg	.	.	8g	.
.	8r	8r	8r	.	.	.	8aa	.	.	8a	8r
.	4G	4G	4G	.	.	.	4.aa	.	.	4.a	4.f#
.	.	.	.	.	2r	2r	.	.	.	.	.
.	2r	2r	2r	.	.	.	.	.	.	.	.
.	.	.	.	.	.	.	8bb	.	.	8b	8g
.	.	.	.	.	.	.	8r	.	.	8r	8r
.	.	.	.	.	8dd	8dd	8dd	.	.	8dd	8dd
=9	=9	=9	=9	=9	=9	=9	=9	=9	=9	=9	=9
4.cc	8g	8G	8G	4.e	4.gg	4.b	4.gg	4.B	4.G	8gg	8d 8b
.	8g	8G	8G	.	.	.	.	.	.	8gg	8b 8d
.	8g	8G	8G	.	.	.	.	.	.	8gg	8b 8d
4.dd	8a	8G	8G	4.g	8ff#	4.a	8ff#	4.c	4.A	8ff#	8cc 8d
.	8a	8G	8G	.	8ee	.	8ee	.	.	8ee	8cc 8d
.	8a	8G	8G	.	8ff#	.	8ff#	.	.	8ff#	8cc 8d
4ee	4g	4G	4G	4cc	4gg	4b	4gg	4B	4G	8gg	4b 4d
.	.	.	.	.	.	.	.	.	.	8bb	.
2r	2r	2r	2r	2r	4.r	4.r	4.r	2r	2r	8gg	4.r
.	.	.	.	.	.	.	.	.	.	4dd	.
.	.	.	.	.	8dd	8dd	8dd	.	.	8dd	8dd
=10	=10	=10	=10	=10	=10	=10	=10	=10	=10	=10	=10
4.ee	8g	8G	8G	4.cc	4.bb	4.gg	4.bb	4.d	4.B	8bb	8gg 8b
.	8g	8G	8G	.	.	.	.	.	.	8bb	8b 8gg
.	8g	8G	8G	.	.	.	.	.	.	8bb	8b 8gg
4.dd	8g	8G	8G	4.g	8aa	8ff#	8aa	4.c	4.A	8aa	8ff# 8cc
.	8g	8G	8G	.	8gg	8ee	8gg	.	.	8gg	8ff# 8cc
.	8g	8G	8G	.	8aa	8ff#	8aa	.	.	8aa	8cc 8ff#
4cc	4g	4G	4G	4e	4bb	4gg	4bb	4B	4G	8bb	4gg 4b
.	.	.	.	.	.	.	.	.	.	8ddd	.
2r	2r	2r	2r	2r	2r	2r	4.r	2r	2r	8bb	2r
.	.	.	.	.	.	.	.	.	.	4gg	.
.	.	.	.	.	.	.	8ddd	.	.	8r	.
=11	=11	=11	=11	=11	=11	=11	=11	=11	=11	=11	=11
1.r	2..r	2..r	2..r	1.r	2..r	2..r	8ddd	2..r	2..r	4g	2..r
.	.	.	.	.	.	.	8bb	.	.	.	.
.	.	.	.	.	.	.	8ddd	.	.	8r	.
.	.	.	.	.	.	.	8ddd	.	.	4f#	.
.	.	.	.	.	.	.	8aa	.	.	.	.
.	.	.	.	.	.	.	8ddd	.	.	8r	.
.	.	.	.	.	.	.	8ddd	.	.	4e	.
.	2r	2r	2r	.	2r	2r	8gg	2r	2r	.	2r
.	.	.	.	.	.	.	8ddd	.	.	8r	.
.	.	.	.	.	.	.	8ddd	.	.	4d	.
.	.	.	.	.	.	.	8ff#	.	.	.	.
.	8g	8G	8G	.	8bb	8dd	8ddd	8G	8G	8ddd	8b
=12	=12	=12	=12	=12	=12	=12	=12	=12	=12	=12	=12
1.r	4g	4G	4G	1.r	4bb	2.dd	8ddd	4G	4G	8ddd	4b
.	.	.	.	.	.	.	8bb	.	.	8bb	.
.	8f#	8F#	8F#	.	8aa	.	8ddd	8F#	8F#	8ddd	8a
.	4f#	4F#	4F#	.	4aa	.	8ddd	4F#	4F#	8ddd	4a
.	.	.	.	.	.	.	8aa	.	.	8aa	.
.	8e	8E	8E	.	8gg	.	8ddd	8E	8E	8ddd	8g
.	4e	4E	4E	.	4gg	2.dd	8ddd	4E	4E	8ddd	4g
.	.	.	.	.	.	.	8gg	.	.	8gg	.
.	8d	8D	8D	.	8ff#	.	8ddd	8D	8D	8ddd	8f#
.	4d	4D	4D	.	4ff#	.	8ddd	4D	4D	8ddd	4f#
.	.	.	.	.	.	.	8ff#	.	.	8ff#	.
.	8d	8D	8D	.	8ff#	.	8ddd	8D	8D	8ddd	8ff#
=13	=13	=13	=13	=13	=13	=13	=13	=13	=13	=13	=13
1.g	8d	8BB	8BB	1.g	2.ff#	2.dd	8ddd	1.B	1.B	8ddd	8ff#
.	8d	8BB	8BB	.	.	.	8ddd	.	.	8ddd	8ff#
.	8d	8BB	8BB	.	.	.	8ddd	.	.	8ddd	8ff#
.	8d	8BB	8BB	.	.	.	8ddd	.	.	8ddd	8ff#
.	8d	8BB	8BB	.	.	.	8ddd	.	.	8ddd	8ff#
.	8d	8BB	8BB	.	.	.	8ddd	.	.	8ddd	8ff#
.	8d	8BB	8BB	.	2.gg#	2.dd	8ddd	.	.	8ddd	8gg#
.	8d	8BB	8BB	.	.	.	8ccc#	.	.	8ccc#	8gg#
.	8d	8BB	8BB	.	.	.	8bb	.	.	8bb	8gg#
.	8d	8BB	8BB	.	.	.	8bb	.	.	8bb	8gg#
.	8d	8BB	8BB	.	.	.	8aa	.	.	8aa	8gg#
.	8d	8BB	8BB	.	.	.	8gg#	.	.	8gg#	8gg#
=14	=14	=14	=14	=14	=14	=14	=14	=14	=14	=14	=14
[1.dd	4c#	8AA	8AA	[1.dd	8gg#	4cc#	8gg#	1.A	1.A	8gg#	8gg#
.	.	8AA	8AA	.	8bb	.	8bb	.	.	8bb	8bb
.	8a	8AA	8AA	.	8aa	2..r	8aa	.	.	8aa	8aa
.	8a	8AA	8AA	.	4aa	.	8aa	.	.	8aa	8cc#
.	8b	8AA	8AA	.	.	.	8bb	.	.	8bb	8dd
.	8cc#	8AA	8AA	.	2..r	.	8ccc#	.	.	8ccc#	8ee
.	8dd	8AA	8AA	.	.	.	8ddd	.	.	8ddd	8ff#
.	8cc#	8AA	8AA	.	.	.	8ccc#	.	.	8ccc#	8ee
.	8b	8AA	8AA	.	.	.	8bb	.	.	8bb	8dd
.	8b	8AA	8AA	.	.	4.r	8bb	.	.	8bb	8dd
.	8a	8AA	8AA	.	.	.	8aa	.	.	8aa	8cc#
.	8g#	8AA	8AA	.	.	.	8gg#	.	.	8gg#	8b
=15	=15	=15	=15	=15	=15	=15	=15	=15	=15	=15	=15
1.dd_	8g#	8AA	8AA	1.dd_	8gg#	8b	8gg#	1.AA	1.AA	8gg#	8b
.	8b	8AA	8AA	.	8bb	8dd	8bb	.	.	8bb	8dd
.	8a	8AA	8AA	.	8aa	8cc#	8aa	.	.	8aa	8cc#
.	8a	8AA	8AA	.	4aa	4cc#	4aa	.	.	8aa	8cc#
.	8b	8AA	8AA	.	.	.	.	.	.	8bb	8dd
.	8cc#	8AA	8AA	.	2..r	2..r	2..r	.	.	8ccc#	8ee
.	8dd	8AA	8AA	.	.	.	.	.	.	8ddd	8ff#
.	8cc#	8AA	8AA	.	.	.	.	.	.	8ccc#	8ee
.	8b	8AA	8AA	.	.	.	.	.	.	8bb	8dd
.	8b	8AA	8AA	.	.	.	.	.	.	8bb	8dd
.	8a	8AA	8AA	.	.	.	.	.	.	8aa	8cc#
.	8g#	8AA	8AA	.	.	.	.	.	.	8gg#	8b
=16	=16	=16	=16	=16	=16	=16	=16	=16	=16	=16	=16
4dd]	4.g#	4AA	4AA	4dd]	4.b	4.b	1.r	4AA	4AA	4.gg#	4.b
2..r	.	2..r	2..r	2..r	.	.	.	2r	2r	.	.
.	8a	.	.	.	8cc#	8cc#	.	.	.	8bb	8cc#
.	1r	.	.	.	1r	1r	.	.	.	8aa	1r
.	.	.	.	.	.	.	.	.	.	8ee	.
.	.	.	.	.	.	.	.	2.c#	2.c#	8bb	.
.	.	.	.	.	.	.	.	.	.	8aa	.
.	.	.	.	.	.	.	.	.	.	8ee	.
4.r	.	4.r	4.r	4.r	.	.	.	.	.	8aa	.
.	.	.	.	.	.	.	.	.	.	8gg	.
.	.	.	.	.	.	.	.	.	.	8ee	.
=17	=17	=17	=17	=17	=17	=17	=17	=17	=17	=17	=17
1.r	1.r	4D	4D	1.r	4dd	1.r	1.r	4d	4d	4dd	4f#
.	.	2..r	2..r	.	8ee	.	.	2..r	2..r	2..r	8r
.	.	.	.	.	4ee	.	.	.	.	.	4g
.	.	.	.	.	8ff#	.	.	.	.	.	8r
.	.	.	.	.	4ff#	.	.	.	.	.	4a
.	.	.	.	.	8gg	.	.	.	.	.	2r
.	.	4.r	4.r	.	8ee	.	.	4.r	4.r	4.r	.
.	.	.	.	.	8dd	.	.	.	.	.	.
.	.	.	.	.	8cc#	.	.	.	.	.	.
=18	=18	=18	=18	=18	=18	=18	=18	=18	=18	=18	=18
1.r	1.r	1.r	1.r	1.r	4ff#	4dd	1.r	1.r	1.r	4ff#	4dd
.	.	.	.	.	8gg	8ee	.	.	.	8r	8r
.	.	.	.	.	4gg	4ee	.	.	.	4gg	4ee
.	.	.	.	.	8aa	8ff#	.	.	.	8r	8r
.	.	.	.	.	4aa	4ff#	.	.	.	4aa	4ff#
.	.	.	.	.	8bb	8gg	.	.	.	2r	2r
.	.	.	.	.	8gg	8ee	.	.	.	.	.
.	.	.	.	.	8ff#	8dd	.	.	.	.	.
.	.	.	.	.	8ee	8cc#	.	.	.	.	.
=19	=19	=19	=19	=19	=19	=19	=19	=19	=19	=19	=19
1.g	4d	4D	4D	1.G	1.dd	4ff#	2..ddd	4D	4D	8ddd	4f#
.	.	.	.	.	.	.	.	.	.	8ddd	.
.	8e	8E	8E	.	.	8gg	.	8E	8E	8ddd	8g
.	4e	4E	4E	.	.	4gg	.	4E	4E	8ddd	4g
.	.	.	.	.	.	.	.	.	.	8ddd	.
.	8f#	8F#	8F#	.	.	8aa	.	8F#	8F#	8ddd	8a
.	8f#	8F#	8F#	.	.	2.aa	.	8F#	8F#	8ddd	8a
.	8d	8F#	8F#	.	.	.	8aa	8F#	8F#	8aa	8dd
.	8d	8G	8G	.	.	.	8bb	8G	8G	8bb	8dd
.	8d	8A	8A	.	.	.	8ccc	8A	8A	8ccc	8dd
.	8d	8G	8G	.	.	.	8bb	8G	8G	8bb	8dd
.	8d	8F#	8F#	.	.	.	8aa	8F#	8F#	8aa	8dd
=20	=20	=20	=20	=20	=20	=20	=20	=20	=20	=20	=20
4cc	8B	8G	8G	4c	4.bb	4.dd	4.bb	4.G	4.G	8bb	8dd
.	8B	8G	8G	.	.	.	.	.	.	8ee	8dd
2..r	8B	8G	8G	2..r	.	.	.	.	.	8bb	8dd
.	8B	8D#	8D#	.	4.aa	4.ff#	4.aa	4.D#	4.D#	8aa	8ff#
.	8B	8D#	8D#	.	.	.	.	.	.	8b	8ff#
.	8B	8D#	8D#	.	.	.	.	.	.	8aa	8ff#
.	8e	8E	8E	.	4.gg#	4.b	4.gg#	4.E	4.E	8gg#	8b
.	8e	8E	8E	.	.	.	.	.	.	8b	8b
.	8e	8E	8E	.	.	.	.	.	.	8gg#	8b
4.r	8cc#	8c#	8c#	4.r	4.gg	4.ee	4.gg	4.c#	4.c#	8gg	8ee 8a
.	8cc#	8c#	8c#	.	.	.	.	.	.	8a	8ee 8a
.	8cc#	8c#	8c#	.	.	.	.	.	.	8gg	8a 8ee
=21	=21	=21	=21	=21	=21	=21	=21	=21	=21	=21	=21
1.r	8dd	8d	8d	1.r	4ff	4.ff	4ff	8d	8d	8ff	8ff
.	8ff	8f	8f	.	.	.	.	8f	8f	8dd	8dd
.	8dd	8d	8d	.	2..r	.	2..r	8d	8d	8ff	8ff
.	8cc	8c	8c	.	.	2..r	.	8c	8c	8ee	8ee
.	8ee	8e	8e	.	.	.	.	8e	8e	8cc	8cc
.	8cc	8c	8c	.	.	.	.	8c	8c	8ee	8ee
.	8b-	8B-	8B-	.	.	.	.	8B-	8B-	8dd	8dd
.	8dd	8d	8d	.	.	.	.	8d	8d	8b-	8b-
.	8b-	8B-	8B-	.	.	.	.	8B-	8B-	8dd	8dd
.	8a	8A	8A	.	4.r	.	4.r	8A	8A	8cc	8cc
.	8cc	8c	8c	.	.	4r	.	8c	8c	8a	8a
.	8a	8A	8A	.	.	.	.	8A	8A	8cc	8cc
=22	=22	=22	=22	=22	=22	=22	=22	=22	=22	=22	=22
1.r	8g	8G	8G	1.r	1.r	1.r	1.r	8G	8G	8b-	8b-
.	8b-	8B-	8B-	.	.	.	.	8B-	8B-	8g	8g
.	8g	8G	8G	.	.	.	.	8G	8G	8b-	8b-
.	8f	8F	8F	.	.	.	.	8F	8F	8a	8a
.	8a	8A	8A	.	.	.	.	8A	8A	8f	8f
.	8f	8F	8F	.	.	.	.	8F	8F	8a	8a
.	8e	8E	8E	.	.	.	.	8E	8E	8g	8g
.	8g	8G	8G	.	.	.	.	8G	8G	8e	8e
.	8e	8E	8E	.	.	.	.	8E	8E	8g	8g
.	8f	8F	8F	.	.	.	.	8F	8F	8f	8f
.	8e	8E	8E	.	.	.	.	8E	8E	8e	8e
.	8d	8D	8D	.	.	.	.	8D	8D	8d	8d
=23	=23	=23	=23	=23	=23	=23	=23	=23	=23	=23	=23
4dd	8A	8AA	8AA	4dd	4.aa	4.a	4.aa	8AA	8AA	8A	8A
.	8a	8A	8A	.	.	.	.	8A	8A	8a	8a
2r	8A	8AA	8AA	2r	.	.	.	8AA	8AA	8A	8A
.	8B-	8BB-	8BB-	.	4.bb-	4.b-	4.bb-	8BB-	8BB-	8B-	8B-
.	8B-	8BB-	8BB-	.	.	.	.	8BB-	8BB-	8B-	8B-
.	8B-	8BB-	8BB-	.	.	.	.	8BB-	8BB-	8B-	8B-
4dd	8A	8AA	8AA	4dd	4.aa	4.a	4.aa	8AA	8AA	8A	8A
.	8a	8A	8A	.	.	.	.	8A	8A	8a	8a
2r	8A	8AA	8AA	2r	.	.	.	8AA	8AA	8A	8A
.	8G#	8GG#	8GG#	.	4.gg#	4.g#	4.gg#	8GG#	8GG#	8G#	8G#
.	8G#	8GG#	8GG#	.	.	.	.	8GG#	8GG#	8G#	8G#
.	8G#	8GG#	8GG#	.	.	.	.	8GG#	8GG#	8G#	8G#
=24	=24	=24	=24	=24	=24	=24	=24	=24	=24	=24	=24
4dd	8A	8AA	8AA	4dd	4.aa	4.a	4.aa	8AA	8AA	8A	8A
.	8a	8A	8A	.	.	.	.	8A	8A	8a	8a
2r	8A	8AA	8AA	2r	.	.	.	8AA	8AA	8A	8A
.	8B-	8BB-	8BB-	.	4.bb-	4.b-	4.bb-	8BB-	8BB-	8B-	8B-
.	8B-	8BB-	8BB-	.	.	.	.	8BB-	8BB-	8B-	8B-
.	8B-	8BB-	8BB-	.	.	.	.	8BB-	8BB-	8B-	8B-
4dd	8A	8AA	8AA	4dd	4.aa	4.a	4.aa	8AA	8AA	8A	8A
.	8a	8A	8A	.	.	.	.	8A	8A	8a	8a
2r	8A	8AA	8AA	2r	.	.	.	8AA	8AA	8A	8A
.	8G#	8GG#	8GG#	.	4.gg#	4.g#	4.gg#	8GG#	8GG#	8G#	8G#
.	8G#	8GG#	8GG#	.	.	.	.	8GG#	8GG#	8G#	8G#
.	8G#	8GG#	8GG#	.	.	.	.	8GG#	8GG#	8G#	8G#
=25	=25	=25	=25	=25	=25	=25	=25	=25	=25	=25	=25
4dd	8A	8AA	8AA	4dd	4aa	4a	4aa	8AA	8AA	8A	8A
.	8c#	8C#	8C#	.	.	.	.	8C#	8C#	8c#	8c#
2r	8d	8D	8D	2r	2r	2r	2r	8D	8D	8d	8d
.	8e	8E	8E	.	.	.	.	8E	8E	8e	8e
.	8f#	8F#	8F#	.	.	.	.	8F#	8F#	8f#	8f#
.	8g#	8G#	8G#	.	.	.	.	8G#	8G#	8g#	8g#
4dd	4a	4A	4A	4dd	8a	8a	8a	4A	4A	8a	4a
.	.	.	.	.	8cc#	8cc#	8cc#	.	.	8cc#	.
2r	2r	2r	2r	2r	8dd	8dd	8dd	2r	2r	8dd	2r
.	.	.	.	.	8ee	8ee	8ee	.	.	8ee	.
.	.	.	.	.	8ff#	8ff#	8ff#	.	.	8ff#	.
.	.	.	.	.	8gg#	8gg#	8gg#	.	.	8gg#	.
=26	=26	=26	=26	=26	=26	=26	=26	=26	=26	=26	=26
4dd	4a	4A	4A	4dd	4aa	4cc#	4aa	4A	4A	4aa	4cc#
2..r	8b	8B	8B	2..r	8gg#	8dd	8gg#	8B	8B	8gg#	8dd
.	4b	4B	4B	.	4gg#	4dd	4gg#	4B	4B	4gg#	4dd
.	8cc#	8c#	8c#	.	8gg	8ee	8gg	8c#	8c#	8gg	8ee
.	4cc#	4c#	4c#	.	4gg	4ee	4gg	4c#	4c#	4gg	4ee
.	8dd	8d	8d	.	8ff#	8ff#	8ff#	8d	8d	8ff#	8ff#
4.r	4dd	4d	4d	4.r	4ff#	4ff#	4ff#	4d	4d	4ff#	4ff#
.	8g	8G	8G	.	8ee	8ee	8ee	8G	8G	8ee	8ee
=27	=27	=27	=27	=27	=27	=27	=27	=27	=27	=27	=27
4.cc	4.g	4.G	4.G	4.cc	8ee	8ee	8ee	4.G	4.G	8ee	8ee
.	.	.	.	.	8ff#	8ff#	8ff#	.	.	8ff#	8ff#
.	.	.	.	.	8gg	8gg	8gg	.	.	8gg	8gg
4.dd	4.a	4.A	4.A	4.dd	8a	8a	8a	4.A	4.A	8a	8a
.	.	.	.	.	8b	8b	8b	.	.	8b	8b
.	.	.	.	.	8cc#	8cc#	8cc#	.	.	8cc#	8cc#
4g	4d	4D	4D	4g	4dd	4dd	4dd	4D	4D	4dd	4dd
2r	2r	2r	2r	2r	2r	2r	2r	2r	2r	4.r	4.r
.	.	.	.	.	.	.	.	.	.	8a	8a
=28	=28	=28	=28	=28	=28	=28	=28	=28	=28	=28	=28
1.r	1.r	1.r	1.r	1.r	1.r	1.r	2.r	1.r	1.r	4a	4a
.	.	.	.	.	.	.	.	.	.	8b	8g#
.	.	.	.	.	.	.	.	.	.	4b	4g#
.	.	.	.	.	.	.	.	.	.	8cc#	8g
.	.	.	.	.	.	.	4.cc#	.	.	8cc#	4.g
.	.	.	.	.	.	.	.	.	.	8aa	.
.	.	.	.	.	.	.	.	.	.	8aa	.
.	.	.	.	.	.	.	4.dd	.	.	8aa	4.f#
.	.	.	.	.	.	.	.	.	.	8ff#	.
.	.	.	.	.	.	.	.	.	.	8dd	.
=29	=29	=29	=29	=29	=29	=29	=29	=29	=29	=29	=29
2.r	2.r	2.r	2.r	2.r	2.r	2.r	4.cc#	2.r	2.r	8cc#	4.g
.	.	.	.	.	.	.	.	.	.	8aa	.
.	.	.	.	.	.	.	.	.	.	8aa	.
.	.	.	.	.	.	.	4.dd	.	.	8aa	4.f#
.	.	.	.	.	.	.	.	.	.	8ff#	.
.	.	.	.	.	.	.	.	.	.	8dd	.
2.dd	8c#	8AA	8AA	2.dd	4.cc#	4.cc#	4.gg	8AA	8AA	8gg 8a	8a 8e
.	8c#	8A	8A	.	.	.	.	8A	8A	8gg 8a	8a 8e
.	8c#	8A	8A	.	.	.	.	8A	8A	8gg 8a	8e 8a
.	8d	8A	8A	.	4.dd	4.dd	4.ff#	8A	8A	8ff# 8a	8a 8d
.	8d	8F#	8F#	.	.	.	.	8F#	8F#	8a 8ff#	8d 8a
.	8d	8D	8D	.	.	.	.	8D	8D	8a 8ff#	8d 8a
=30	=30	=30	=30	=30	=30	=30	=30	=30	=30	=30	=30
2.dd	8c#	8C#	8C#	2.dd	4.gg	4.cc#	4.gg	8C#	8C#	8a 8gg	8e 8a
.	8c#	8A	8A	.	.	.	.	8A	8A	8a 8gg	8e 8a
.	8c#	8A	8A	.	.	.	.	8A	8A	8a 8gg	8a 8e
.	8d	8A	8A	.	4.ff#	4.dd	4.ff#	8A	8A	8ff# 8a	8d 8a
.	8d	8F#	8F#	.	.	.	.	8F#	8F#	8a 8ff#	8a 8d
.	8d	8D	8D	.	.	.	.	8D	8D	8ff# 8a	8a 8d
4ee	4G	4GG	4GG	4cc	4bb	4b	4bb	4GG	4GG	4b 4bb	4b 4d
8r	8r	8r	8r	8r	8r	8r	8r	8r	8r	8r	8r
4dd	4A	4AA	4AA	4dd	4cc#	4g	4cc#	4AA	4AA	4e 4cc#	4A 4g
8r	8r	8r	8r	8r	8r	8r	8r	8r	8r	8r	8r
=31	=31	=31	=31	=31	=31	=31	=31	=31	=31	=31	=31
4dd	8d	8D	8D	4g	4dd	4f#	4dd	8D	8D	8dd	8f#
.	8d	8D	8D	.	.	.	.	8D	8D	8f#	8d
2..r	8d	8D	8D	2..r	8r	8r	8r	8D	8D	8dd	8f#
.	8d	8D	8D	.	4ee	4g	4ee	8D	8D	8ee	8g
.	8d	8D	8D	.	.	.	.	8D	8D	8g	8e
.	8d	8D	8D	.	8r	8r	8r	8D	8D	8ee	8g
.	8d	8D	8D	.	4ff#	4a	4ff#	8D	8D	8ff#	8a
.	8d	8D	8D	.	.	.	.	8D	8D	8a	8f#
.	8d	8D	8D	.	8r	8r	8r	8D	8D	8ff#	8a
4.r	8d	8D	8D	4.r	8gg	8b	8gg	8D	8D	8gg	8b
.	8d	8D	8D	.	8ee	8g	8ee	8D	8D	8ee	8g
.	8d	8D	8D	.	8cc#	8e	8cc#	8D	8D	8cc#	8e
=32	=32	=32	=32	=32	=32	=32	=32	=32	=32	=32	=32
4dd	8d	8D	8D	4g	4.dd	4.f#	4.dd	8D	8D	8dd	8f#
.	8d	8D	8D	.	.	.	.	8D	8D	8f#	8d
2..r	8d	8D	8D	2..r	.	.	.	8D	8D	8dd	8f#
.	8d	8D	8D	.	4.ee	4.g	4.ee	8D	8D	8ee	8g
.	8d	8D	8D	.	.	.	.	8D	8D	8g	8e
.	8d	8D	8D	.	.	.	.	8D	8D	8ee	8g
.	8d	8D	8D	.	4.ff#	4.a	4.ff#	8D	8D	8ff#	8a
.	8d	8D	8D	.	.	.	.	8D	8D	8a	8f#
.	8d	8D	8D	.	.	.	.	8D	8D	8ff#	8a
4.r	8d	8D	8D	4.r	8gg	4b	8gg	8D	8D	8gg	8b
.	8d	8D	8D	.	8ee	.	8ee	8D	8D	8ee	8g
.	8d	8D	8D	.	8cc#	8cc#	8cc#	8D	8D	8cc#	8e
=33	=33	=33	=33	=33	=33	=33	=33	=33	=33	=33	=33
1.dd	8d	8D	8D	1.g	8dd	8dd	8dd	8D	8D	8dd	8f#
.	8f#	8F#	8F#	.	8aa	8aa	8aa	8F#	8F#	8aa	8a
.	8a	8A	8A	.	8ff#	8ff#	8ff#	8A	8A	8ff#	8f#
.	8dd	8d	8d	.	8dd	8dd	8dd	8d	8d	8dd	8dd
.	8a	8A	8A	.	8a	8a	8a	8A	8A	8a	8a
.	8f#	8F#	8F#	.	8f#	8f#	8f#	8F#	8F#	8f#	8f#
.	8d	8D	8D	.	8d	8d	8d	8D	8D	8d	8d
.	8f#	8F#	8F#	.	8f#	8f#	8f#	8F#	8F#	8f#	8f#
.	8a	8A	8A	.	8a	8a	8a	8A	8A	8a	8a
.	8dd	8d	8d	.	8dd	8dd	8dd	8d	8d	8dd	8dd
.	8a	8A	8A	.	8ff#	8ff#	8ff#	8A	8A	8ff#	8ff#
.	8f#	8F#	8F#	.	8aa	8aa	8aa	8F#	8F#	8aa	8aa
=34	=34	=34	=34	=34	=34	=34	=34	=34	=34	=34	=34
4dd	4d	4D	4D	4g	4ddd	4ff#	4ddd	4D	4D	4ddd	4ddd
8r	8r	8r	8r	8r	8r	8r	8r	8r	8r	8r	8r
4dd	4d	4D	4D	4g	4ddd	4ff#	4ddd	4D	4D	4d 4ff# 4ddd	4ddd 4ff# 4d
8r	8r	8r	8r	8r	8r	8r	8r	8r	8r	8r	8r
4dd	4d	4D	4D	4g	4ddd	4ff#	4ddd	4D	4D	4d 4ddd 4ff#	4ff# 4ddd 4d
4.r	4.r	4.r	4.r	4.r	4.r	4.r	4.r	4.r	4.r	4.r	4.r
8r	8d	8D	8D	8r	8dd	8d	8dd	8D	8D	8d	8d
=35	=35	=35	=35	=35	=35	=35	=35	=35	=35	=35	=35
1.r	4d	4D	4D	1.r	4dd	4d	4dd	4D	4D	4d	4d
.	8e	8E	8E	.	8ee	8e	8ee	8E	8E	8e	8e
.	4e	4E	4E	.	4ee	4e	4ee	4E	4E	4e	4e
.	8f	8F	8F	.	8ff	8f	8ff	8F	8F	8f	8f
.	4f	4F	4F	.	4ff	4f	4ff	4F	4F	4f	4f
.	4.r	4.r	4.r	.	2r	2r	2r	2r	2r	2r	4.r
.	8a	8f	8f	.	.	.	.	.	.	.	8dd
=36	=36	=36	=36	=36	=36	=36	=36	=36	=36	=36	=36
1.r	4a	4f	4f	1.r	1.r	1.r	1.r	1.r	1.r	2r	4dd
.	8g	8e	8e	.	.	.	.	.	.	.	8ee
.	4g	4e	4e	.	.	.	.	.	.	.	4ee
.	.	.	.	.	.	.	.	.	.	8r	.
.	8f	8d	8d	.	.	.	.	.	.	8aa	8ff
.	4f	4d	4d	.	.	.	.	.	.	4aa	4ff
.	4.r	2r	2r	.	.	.	.	.	.	8bb	4.r
.	.	.	.	.	.	.	.	.	.	4bb	.
.	8e	.	.	.	.	.	.	.	.	8ccc	8g
=37	=37	=37	=37	=37	=37	=37	=37	=37	=37	=37	=37
1.r	4e	1.r	1.r	1.r	1.r	1.r	1.r	1.r	1.r	4ccc	4g
.	8f#	.	.	.	.	.	.	.	.	4.r	8a
.	4f#	.	.	.	.	.	.	.	.	.	4a
.	8g	.	.	.	.	.	.	.	.	8bb	8b
.	4g	.	.	.	.	.	.	.	.	4bb	4b
.	4.r	.	.	.	.	.	.	.	.	8ccc#	4.r
.	.	.	.	.	.	.	.	.	.	4ccc#	.
.	8f#	.	.	.	.	.	.	.	.	8ddd	8a
=38	=38	=38	=38	=38	=38	=38	=38	=38	=38	=38	=38
1.r	4f#	2..r	2..r	1.r	1.r	1.r	1.r	1.r	1.r	4ddd	4a
.	8g#	.	.	.	.	.	.	.	.	4.r	8b
.	4g#	.	.	.	.	.	.	.	.	.	4b
.	8a	.	.	.	.	.	.	.	.	8ccc#	8cc#
.	4a	.	.	.	.	.	.	.	.	4ccc#	4cc#
.	.	2r	2r	.	.	.	.	.	.	.	.
.	4.r	.	.	.	.	.	.	.	.	8ddd#	4.r
.	.	.	.	.	.	.	.	.	.	4ddd#	.
.	8e	8E	8E	.	.	.	.	.	.	8eee	8g#
=39	=39	=39	=39	=39	=39	=39	=39	=39	=39	=39	=39
1.r	4e	4E	4E	1.r	1.r	1.r	1.r	1.r	1.r	4eee	4g#
.	8f#	8F#	8F#	.	.	.	.	.	.	8ddd#	8a
.	4f#	4F#	4F#	.	.	.	.	.	.	4ddd#	4a
.	8g#	8G#	8G#	.	.	.	.	.	.	8ddd	8b
.	8g#	8G#	8G#	.	.	.	.	.	.	8ddd	8b
.	8g#	8e	8e	.	.	.	.	.	.	8ddd	8bb
.	8g#	8e	8e	.	.	.	.	.	.	8ddd	8bb
.	8a	8e	8e	.	.	.	.	.	.	8ccc	8aa
.	8a	8c	8c	.	.	.	.	.	.	8ccc	8aa
.	8a	8A	8A	.	.	.	.	.	.	8ccc	8aa
=40	=40	=40	=40	=40	=40	=40	=40	=40	=40	=40	=40
1.r	8f#	8F#	8F#	1.r	1.r	1.r	1.r	1.r	1.r	8ccc	8aa
.	8f#	8d	8d	.	.	.	.	.	.	8ccc	8aa
.	8f#	8d	8d	.	.	.	.	.	.	8ccc	8aa
.	8g	8d	8d	.	.	.	.	.	.	8bb	8gg
.	8g	8B	8B	.	.	.	.	.	.	8bb	8gg
.	8g	8G	8G	.	.	.	.	.	.	8bb	8gg
.	8e	8E	8E	.	.	.	.	.	.	8bb	8gg
.	8e	8c	8c	.	.	.	.	.	.	8bb	8gg
.	8e	8c	8c	.	.	.	.	.	.	8bb	8gg
.	8f#	8c	8c	.	.	.	.	.	.	8aa	8ff#
.	8f#	8A	8A	.	.	.	.	.	.	8aa	8ff#
.	8f#	8F#	8F#	.	.	.	.	.	.	8aa	8ff#
=41	=41	=41	=41	=41	=41	=41	=41	=41	=41	=41	=41
1.r	8d#	8D#	8D#	1.r	1.r	1.r	1.r	1.r	1.r	8aa	8ff#
.	8d#	8B	8B	.	.	.	.	.	.	8aa	8ff#
.	8d#	8B	8B	.	.	.	.	.	.	8aa	8ff#
.	8e	8B	8B	.	.	.	.	.	.	8gg	8ee
.	8e	8G	8G	.	.	.	.	.	.	8gg	8ee
.	8e	8E	8E	.	.	.	.	.	.	8gg	8ee
.	8e	8C	8C	.	.	.	.	.	.	8a#	8a#
.	8e	8C	8C	.	.	.	.	.	.	8gg	8a#
.	8e	8C	8C	.	.	.	.	.	.	8gg	8a#
.	8c	8C	8C	.	.	.	.	.	.	8gg	8a#
.	8c	8C	8C	.	.	.	.	.	.	8ff#	8a#
.	8c	8C	8C	.	.	.	.	.	.	8ee	8a#
=42	=42	=42	=42	=42	=42	=42	=42	=42	=42	=42	=42
2.ee	2.B	1.BB	1.BB	2.e	2.r	2.r	2.r	2.r	2.r	8dd#	2.b
.	.	.	.	.	.	.	.	.	.	8bb	.
.	.	.	.	.	.	.	.	.	.	8bb	.
.	.	.	.	.	.	.	.	.	.	8bb	.
.	.	.	.	.	.	.	.	.	.	8ff#	.
.	.	.	.	.	.	.	.	.	.	8dd#	.
2.dd	2.d#	.	.	2.e	2.ccc	2.aa	2.ff#	2.d#	2.d#	8cc	2.aa 2.cc
.	.	.	.	.	.	.	.	.	.	8ccc	.
.	.	.	.	.	.	.	.	.	.	8ccc	.
.	.	.	.	.	.	.	.	.	.	8ccc	.
.	.	.	.	.	.	.	.	.	.	8aa	.
.	.	.	.	.	.	.	.	.	.	8ff#	.
=43	=43	=43	=43	=43	=43	=43	=43	=43	=43	=43	=43
2.cc	2.e	1.BB	1.BB	2.e	2.bb	2.gg	2.gg	2.e	2.e	8b	2.gg 2.b
.	.	.	.	.	.	.	.	.	.	8bb	.
.	.	.	.	.	.	.	.	.	.	8bb	.
.	.	.	.	.	.	.	.	.	.	8bb	.
.	.	.	.	.	.	.	.	.	.	8gg	.
.	.	.	.	.	.	.	.	.	.	8ee	.
2.dd	2.a	.	.	2.e	2.aa	2.ff#	2.aa	2.B	2.B	8a	2.ff# 2.dd#
.	.	.	.	.	.	.	.	.	.	8aa	.
.	.	.	.	.	.	.	.	.	.	8aa	.
.	.	.	.	.	.	.	.	.	.	8aa	.
.	.	.	.	.	.	.	.	.	.	8ff#	.
.	.	.	.	.	.	.	.	.	.	8dd#	.
=44	=44	=44	=44	=44	=44	=44	=44	=44	=44	=44	=44
2.cc	8g	8E	8E	2.c	2.gg	2.ee	2.gg	2.e	2.e	8ee	8gg 8b
.	8g	8E	8E	.	.	.	.	.	.	8gg	8gg 8b
.	8g	8E	8E	.	.	.	.	.	.	8gg	8gg 8b
.	8g	8E	8E	.	.	.	.	.	.	8gg	8b 8gg
.	8g	8E	8E	.	.	.	.	.	.	8ee	8gg 8b
.	8g	8E	8E	.	.	.	.	.	.	8b	8gg 8b
2.cc	8G 8g	8D	8D	2.c	2.ff	2.b	2.gg	2.d	2.d	8g	8ff 8b
.	8g 8G	8D	8D	.	.	.	.	.	.	8gg	8ff 8b
.	8G 8g	8D	8D	.	.	.	.	.	.	8gg	8ff 8b
.	8G 8g	8D	8D	.	.	.	.	.	.	8gg	8ff 8b
.	8G 8g	8D	8D	.	.	.	.	.	.	8ff	8ff 8b
.	8G 8g	8D	8D	.	.	.	.	.	.	8dd	8ff 8b
=45	=45	=45	=45	=45	=45	=45	=45	=45	=45	=45	=45
2.cc	8G 8g	8C	8C	2.c	2.ee	2.cc	2.gg	2.c	2.c	8g	8ee 8cc
.	8G 8g	8C	8C	.	.	.	.	.	.	8gg	8ee 8cc
.	8G 8g	8C	8C	.	.	.	.	.	.	8gg	8ee 8cc
.	8G 8g	8C	8C	.	.	.	.	.	.	8gg	8cc 8ee
.	8G 8g	8C	8C	.	.	.	.	.	.	8ee	8cc 8ee
.	8G 8g	8C	8C	.	.	.	.	.	.	8cc	8cc 8ee
2.r	8G 8g	8BB-	8BB-	2.r	2.gg	2.ee	2.ccc	2.B-	2.B-	8cc	8cc 8ee
.	8G 8g	8BB-	8BB-	.	.	.	.	.	.	8ccc	8cc 8ee
.	8G 8g	8BB-	8BB-	.	.	.	.	.	.	8ccc	8ee 8cc
.	8G 8g	8BB-	8BB-	.	.	.	.	.	.	8ccc	8cc 8ee
.	8g 8G	8BB-	8BB-	.	.	.	.	.	.	8gg	8ee 8cc
.	8G 8g	8BB-	8BB-	.	.	.	.	.	.	8ee	8cc 8ee
=46	=46	=46	=46	=46	=46	=46	=46	=46	=46	=46	=46
1.r	8f	8AA	8AA	1.r	2.ff	2.cc	2.ccc	2.A	2.A	8cc	8cc 8ff
.	8f	8AA	8AA	.	.	.	.	.	.	8ccc	8ff 8cc
.	8f	8AA	8AA	.	.	.	.	.	.	8ccc	8cc 8ff
.	8f	8AA	8AA	.	.	.	.	.	.	8ccc	8cc 8ff
.	8f	8AA	8AA	.	.	.	.	.	.	8aa	8cc 8ff
.	8f	8AA	8AA	.	.	.	.	.	.	8ff	8cc 8ff
.	8b-	8E	8E	.	2.bb-	2.gg	2.ccc	2.E	2.E	8cc	8gg 8cc
.	8b-	8E	8E	.	.	.	.	.	.	8ccc	8gg 8cc
.	8b-	8E	8E	.	.	.	.	.	.	8ccc	8gg 8cc
.	8b-	8E	8E	.	.	.	.	.	.	8ccc	8gg 8cc
.	8b-	8E	8E	.	.	.	.	.	.	8bb-	8gg 8cc
.	8b-	8E	8E	.	.	.	.	.	.	8gg	8gg 8cc
=47	=47	=47	=47	=47	=47	=47	=47	=47	=47	=47	=47
1.r	8a-	8F	8F	1.r	2.aa-	2.cc	2.aa-	2.F	2.F	8cc	8aa- 8cc
.	8a-	8F	8F	.	.	.	.	.	.	8ccc	8aa- 8cc
.	8a-	8F	8F	.	.	.	.	.	.	8ccc	8cc 8aa-
.	8a-	8F	8F	.	.	.	.	.	.	8ccc	8aa- 8cc
.	8a-	8F	8F	.	.	.	.	.	.	8aa-	8aa- 8cc
.	8a-	8F	8F	.	.	.	.	.	.	8ff	8aa- 8cc
.	8A- 8a-	8E-	8E-	.	2.gg-	2.cc	2.aa-	2.e-	2.e-	8cc	8cc 8gg-
.	8a- 8A-	8E-	8E-	.	.	.	.	.	.	8ccc	8gg- 8cc
.	8A- 8a-	8E-	8E-	.	.	.	.	.	.	8ccc	8gg- 8cc
.	8A- 8a-	8E-	8E-	.	.	.	.	.	.	8ccc	8gg- 8cc
.	8A- 8a-	8E-	8E-	.	.	.	.	.	.	8aa-	8gg- 8cc
.	8A- 8a-	8E-	8E-	.	.	.	.	.	.	8ccc	8gg- 8cc
=48	=48	=48	=48	=48	=48	=48	=48	=48	=48	=48	=48
1.r	8A- 8a-	8D-	8D-	1.r	2.ff	2.dd-	2.aa-	2.d-	2.d-	8dd-	8dd- 8ff
.	8A- 8a-	8D-	8D-	.	.	.	.	.	.	8ddd-	8ff 8dd-
.	8A- 8a-	8D-	8D-	.	.	.	.	.	.	8ddd-	8ff 8dd-
.	8A- 8a-	8D-	8D-	.	.	.	.	.	.	8ddd-	8ff 8dd-
.	8A- 8a-	8D-	8D-	.	.	.	.	.	.	8aa-	8ff 8dd-
.	8a- 8A-	8D-	8D-	.	.	.	.	.	.	8ff	8ff 8dd-
.	8b-	8BB-	8BB-	.	2.ff	2.dd-	2.ddd-	2.B-	2.B-	8dd-	8f 8dd-
.	8b-	8BB-	8BB-	.	.	.	.	.	.	8ddd-	8dd- 8f
.	8b-	8BB-	8BB-	.	.	.	.	.	.	8ddd-	8dd- 8f
.	8b-	8BB-	8BB-	.	.	.	.	.	.	8ddd-	8dd- 8f
.	8b-	8BB-	8BB-	.	.	.	.	.	.	8bb-	8dd- 8f
.	8b-	8BB-	8BB-	.	.	.	.	.	.	8ff	8dd- 8f
=49	=49	=49	=49	=49	=49	=49	=49	=49	=49	=49	=49
1.r	8b-	8G	8G	1.r	2.bb-	2.dd-	2.ddd-	2.G	2.G	8ee-	8e- 8dd-
.	8b-	8G	8G	.	.	.	.	.	.	8ddd-	8dd- 8e-
.	8b-	8G	8G	.	.	.	.	.	.	8ddd-	8e- 8dd-
.	8b-	8G	8G	.	.	.	.	.	.	8ddd-	8dd- 8e-
.	8b-	8G	8G	.	.	.	.	.	.	8bb-	8dd- 8e-
.	8b-	8G	8G	.	.	.	.	.	.	8ee-	8dd- 8e-
.	8a-	8A-	8A-	.	2.ccc	2.cc	2.ccc	2.A-	2.A-	8ee-	8e- 8cc
.	8a-	8A-	8A-	.	.	.	.	.	.	8ccc	8cc 8e-
.	8a-	8A-	8A-	.	.	.	.	.	.	8ccc	8e- 8cc
.	8a-	8A-	8A-	.	.	.	.	.	.	8ccc	8e- 8cc
.	8a-	8A-	8A-	.	.	.	.	.	.	8aa-	8e- 8cc
.	8a-	8A-	8A-	.	.	.	.	.	.	8ee-	8e- 8cc
=50	=50	=50	=50	=50	=50	=50	=50	=50	=50	=50	=50
1.r	8a-	8F	8F	1.r	2.aa-	2.cc	2.ccc	2.F	2.F	8cc	8a- 8cc
.	8a-	8F	8F	.	.	.	.	.	.	8ccc	8a- 8cc
.	8a-	8F	8F	.	.	.	.	.	.	8ccc	8a- 8cc
.	8a-	8F	8F	.	.	.	.	.	.	8ccc	8a- 8cc
.	8a-	8F	8F	.	.	.	.	.	.	8aa-	8a- 8cc
.	8a-	8F	8F	.	.	.	.	.	.	8ff	8a- 8cc
.	8f	8E-	8E-	.	2.ccc	2.aa	2.ccc	2.E-	2.E-	8cc	8cc 8a
.	8f	8E-	8E-	.	.	.	.	.	.	8ccc	8a 8cc
.	8f	8E-	8E-	.	.	.	.	.	.	8ccc	8cc 8a
.	8f	8E-	8E-	.	.	.	.	.	.	8ccc	8a 8cc
.	8f	8E-	8E-	.	.	.	.	.	.	8aa	8cc 8a
.	8f	8E-	8E-	.	.	.	.	.	.	8ff	8cc 8a
=51	=51	=51	=51	=51	=51	=51	=51	=51	=51	=51	=51
2.g	8d	8D	8D	2.G	2.ccc	2.ff#	2.ccc	2.D	2.D	8cc	8ff# 8a
.	8d	8D	8D	.	.	.	.	.	.	8ccc	8ff# 8a
.	8d	8D	8D	.	.	.	.	.	.	8ccc	8ff# 8a
.	8d	8D	8D	.	.	.	.	.	.	8ccc	8ff# 8a
.	8d	8D	8D	.	.	.	.	.	.	8aa	8ff# 8a
.	8d	8D	8D	.	.	.	.	.	.	8ff#	8ff# 8a
2.g	8d	8D	8D	2.G	2.gg	4.bb-	2.bb-	2.D	2.D	8b-	8b- 8gg
.	8d	8D	8D	.	.	.	.	.	.	8bb-	8gg 8b-
.	8d	8D	8D	.	.	.	.	.	.	8bb-	8b- 8gg
.	8d	8D	8D	.	.	4.gg	.	.	.	8bb-	8gg 8b-
.	8d	8D	8D	.	.	.	.	.	.	8gg	8b- 8gg
.	8d	8D	8D	.	.	.	.	.	.	8dd	8gg 8b-
=52	=52	=52	=52	=52	=52	=52	=52	=52	=52	=52	=52
2.g	8d	8D	8D	2.G	2.aa	2.ff#	2.ddd	2.A	2.F#	8dd	8d
.	8dd	8d	8d	.	.	.	.	.	.	8ddd	8dd
.	8dd	8d	8d	.	.	.	.	.	.	8ddd	8dd
.	8dd	8d	8d	.	.	.	.	.	.	8ddd	8dd
.	8a	8A	8A	.	.	.	.	.	.	8aa	8a
.	8f#	8F#	8F#	.	.	.	.	.	.	8ff#	8f#
2.g	8d	8D	8D	2.G	2.bb-	2.gg	2.ddd	2.B-	2.G	8dd	8d
.	8dd	8d	8d	.	.	.	.	.	.	8ddd	8dd
.	8dd	8d	8d	.	.	.	.	.	.	8ddd	8dd
.	8dd	8d	8d	.	.	.	.	.	.	8ddd	8dd
.	8b-	8B-	8B-	.	.	.	.	.	.	8bb-	8b-
.	8g	8G	8G	.	.	.	.	.	.	8gg	8g
=53	=53	=53	=53	=53	=53	=53	=53	=53	=53	=53	=53
2.g	8d	8D	8D	2.G	2.aa	2.ff#	2.ddd	2.A	2.F#	8dd	8d
.	8dd	8d	8d	.	.	.	.	.	.	8ddd	8dd
.	8dd	8d	8d	.	.	.	.	.	.	8ddd	8dd
.	8dd	8d	8d	.	.	.	.	.	.	8ddd	8dd
.	8a	8A	8A	.	.	.	.	.	.	8aa	8a
.	8f#	8F#	8F#	.	.	.	.	.	.	8ff#	8f#
2.g	8d	8D	8D	2.G	2.bb-	2.gg	2.ddd	2.B-	2.G	8dd	8d
.	8dd	8d	8d	.	.	.	.	.	.	8ddd	8dd
.	8dd	8d	8d	.	.	.	.	.	.	8ddd	8dd
.	8dd	8d	8d	.	.	.	.	.	.	8ddd	8dd
.	8b-	8B-	8B-	.	.	.	.	.	.	8bb-	8b-
.	8g	8G	8G	.	.	.	.	.	.	8gg	8g
=54	=54	=54	=54	=54	=54	=54	=54	=54	=54	=54	=54
2.g	8d	8D	8D	2.G	4.aa	4.ff#	4.ddd	4.A	4.F#	8dd	8d
.	8f#	8F#	8F#	.	.	.	.	.	.	8ff#	8f#
.	8a	8A	8A	.	.	.	.	.	.	8aa	8a
.	8dd	8d	8d	.	4.ff#	4.dd	4.dd	4.D	4.D	8ddd	8dd
.	8a	8A	8A	.	.	.	.	.	.	8aa	8a
.	8f#	8F#	8F#	.	.	.	.	.	.	8ff#	8f#
2.g	8d	8D	8D	2.G	4.dd	4.dd	4.dd	4.D	4.D	8dd	8d
.	8f#	8F#	8F#	.	.	.	.	.	.	8ff#	8f#
.	8a	8A	8A	.	.	.	.	.	.	8aa	8a
.	8dd	8d	8d	.	4.dd	4.dd	4.dd	4.D	4.D	8ddd	8dd
.	8a	8A	8A	.	.	.	.	.	.	8aa	8a
.	8f#	8F#	8F#	.	.	.	.	.	.	8ff#	8f#
=55	=55	=55	=55	=55	=55	=55	=55	=55	=55	=55	=55
4g	4d	4D	4D	4G	4dd	4dd	4dd	4D	4D	4dd	4d
2..r	2..r	2..r	2..r	2..r	2..r	2..r	2..r	2..r	2..r	2..r	2..r
4.r	4.r	4.r	4.r	4.r	4.r	4.r	4r	4.r	4.r	4r	4.r
.	.	.	.	.	.	.	8gg	.	.	8g	.
=56	=56	=56	=56	=56	=56	=56	=56	=56	=56	=56	=56
1.r	4G	4G	4G	1.r	1.r	1.r	4gg	1.r	1.r	4g	4B
.	8r	8r	8r	.	.	.	8aa	.	.	8a	8r
.	4G	4G	4G	.	.	.	4aa	.	.	4a	4c
.	8r	8r	8r	.	.	.	8bb	.	.	8b	8r
.	4G	4G	4G	.	.	.	4bb	.	.	4b	4d
.	8r	8r	8r	.	.	.	8ccc	.	.	8cc	8e
.	4G	4G	4G	.	.	.	8aa	.	.	8a	8c
.	.	.	.	.	.	.	8gg	.	.	8g	8B
.	8r	8r	8r	.	.	.	8ff#	.	.	8f#	8A
=57	=57	=57	=57	=57	=57	=57	=57	=57	=57	=57	=57
1.r	4G	4G	4G	1.r	1.r	1.r	8gg	1.r	1.r	8g	8B
.	.	.	.	.	.	.	8bb	.	.	8b	8d
.	8r	8r	8r	.	.	.	8ddd	.	.	8dd	8g
.	4G	4G	4G	.	.	.	8ddd	.	.	8dd	8b
.	.	.	.	.	.	.	8ccc	.	.	8cc	8a
.	8r	8r	8r	.	.	.	8bb	.	.	8b	8g
.	4d	4D	4D	.	.	.	8aa	.	.	8a	8f#
.	.	.	.	.	.	.	8aa	.	.	8a	8f#
.	2r	2r	2r	.	.	.	8aa	.	.	8a	8f#
.	.	.	.	.	.	.	4aa	.	.	4a	4f#
.	.	.	.	.	.	.	8ccc	.	.	8cc	8r
=58	=58	=58	=58	=58	=58	=58	=58	=58	=58	=58	=58
1.r	4e	4e	4e	1.r	1.r	1.r	8ddd	1.r	1.r	8dd	4g
.	.	.	.	.	.	.	8ccc	.	.	8cc	.
.	8r	8r	8r	.	.	.	8bb	.	.	8b	8r
.	4d	4d	4d	.	.	.	8ccc	.	.	8cc	4g
.	.	.	.	.	.	.	8bb	.	.	8b	.
.	8r	8r	8r	.	.	.	8aa	.	.	8a	8r
.	[2c	[2c	[2c	.	.	.	8aa	.	.	8a	[2f#
.	.	.	.	.	.	.	8ccc	.	.	8cc	.
.	.	.	.	.	.	.	8eee	.	.	8ee	.
.	.	.	.	.	.	.	4eee	.	.	4ee	.
.	8c]	8c]	8c]	.	.	.	.	.	.	.	8f#]
.	8B	8B	8B	.	.	.	8ddd	.	.	8dd	8g
=59	=59	=59	=59	=59	=59	=59	=59	=59	=59	=59	=59
1.r	4c	4c	4c	1.r	2..r	2..r	8ddd	1.r	1.r	8dd	4e
.	.	.	.	.	.	.	8ccc	.	.	8cc	.
.	8r	8r	8r	.	.	.	8bb	.	.	8b	8r
.	4d	4d	4d	.	.	.	8aa	.	.	8a	4f#
.	.	.	.	.	.	.	8gg	.	.	8g	.
.	8r	8r	8r	.	.	.	8aa	.	.	8a	8r
.	4G	4G	4G	.	.	.	4.aa	.	.	4.a	4.f#
.	.	.	.	.	2r	2r	.	.	.	.	.
.	2r	2r	2r	.	.	.	.	.	.	.	.
.	.	.	.	.	.	.	8bb	.	.	8b	8g
.	.	.	.	.	.	.	4r	.	.	8r	8r
.	.	.	.	.	8dd	8dd	.	.	.	8dd	8b
=60	=60	=60	=60	=60	=60	=60	=60	=60	=60	=60	=60
4.cc	8g	8G	8G	4.e	4.gg	4.b	1.r	4.B	4.G	8gg	8b 8d
.	8g	8G	8G	.	.	.	.	.	.	8gg	8b 8d
.	8g	8G	8G	.	.	.	.	.	.	8gg	8b 8d
4.dd	8a	8G	8G	4.g	8ff#	4.a	.	4.c	4.A	8ff#	8cc 8d
.	8a	8G	8G	.	8ee	.	.	.	.	8ee	8cc 8d
.	8a	8G	8G	.	8ff#	.	.	.	.	8ff#	8cc 8d
4ee	4g	4G	4G	4cc	4gg	4b	.	4B	4G	8gg	4b 4d
.	.	.	.	.	.	.	.	.	.	8bb	.
2r	2r	2r	2r	2r	4.r	4.r	.	2r	2r	8gg	4.r
.	.	.	.	.	.	.	.	.	.	4dd	.
.	.	.	.	.	8dd	8dd	.	.	.	8dd	8dd
=61	=61	=61	=61	=61	=61	=61	=61	=61	=61	=61	=61
4.ee	8g	8G	8G	4.cc	4.bb	4.gg	2..r	4.d	4.B	8bb	8b 8gg
.	8g	8G	8G	.	.	.	.	.	.	8bb	8gg 8b
.	8g	8G	8G	.	.	.	.	.	.	8bb	8b 8gg
4.dd	8g	8G	8G	4.g	8aa	8ff#	.	4.c	4.A	8aa	8cc 8ff#
.	8g	8G	8G	.	8gg	8ee	.	.	.	8gg	8ff# 8cc
.	8g	8G	8G	.	8aa	8ff#	.	.	.	8aa	8cc 8ff#
4cc	4g	4G	4G	4e	4bb	4gg	.	4B	4G	8bb	4gg 4b
.	.	.	.	.	.	.	2r	.	.	8ddd	.
2r	2r	2r	2r	2r	2r	2r	.	2r	2r	8bb	2r
.	.	.	.	.	.	.	.	.	.	4gg	.
.	.	.	.	.	.	.	8ddd	.	.	8r	.
=62	=62	=62	=62	=62	=62	=62	=62	=62	=62	=62	=62
1.r	2..r	2..r	2..r	1.r	2..r	2..r	8ddd	2..r	2..r	4g	2..r
.	.	.	.	.	.	.	8bb	.	.	.	.
.	.	.	.	.	.	.	8ddd	.	.	8r	.
.	.	.	.	.	.	.	8ddd	.	.	4f#	.
.	.	.	.	.	.	.	8aa	.	.	.	.
.	.	.	.	.	.	.	8ddd	.	.	8r	.
.	.	.	.	.	.	.	8ddd	.	.	4e	.
.	2r	2r	2r	.	2r	2r	8gg	2r	2r	.	2r
.	.	.	.	.	.	.	8ddd	.	.	8r	.
.	.	.	.	.	.	.	8ddd	.	.	4d	.
.	.	.	.	.	.	.	8ff#	.	.	.	.
.	8cc	8c	8c	.	8gg	8gg	8gg	8c	8c	8gg	8ee
=63	=63	=63	=63	=63	=63	=63	=63	=63	=63	=63	=63
1.cc	4cc	4c	4c	1.c	8gg	8gg	8gg	4c	4c	8gg	4ee
.	.	.	.	.	8ee	8ee	8ee	.	.	8ee	.
.	8b	8B	8B	.	8gg	8gg	8gg	8B	8B	8gg	8dd
.	4b	4B	4B	.	8gg	8gg	8gg	4B	4B	8gg	4dd
.	.	.	.	.	8dd	8dd	8dd	.	.	8dd	.
.	8a	8A	8A	.	8gg	8gg	8gg	8A	8A	8gg	8cc
.	4a	4A	4A	.	8gg	8gg	8gg	4A	4A	8gg	4cc
.	.	.	.	.	8cc	8cc	8cc	.	.	8cc	.
.	8g	8G	8G	.	8gg	8gg	8gg	8G	8G	8gg	8b
.	4g	4G	4G	.	8gg	8gg	8gg	4G	4G	8gg	4b
.	.	.	.	.	8b	8b	8b	.	.	8b	.
.	8B	8BB	8BB	.	8gg	8gg	8gg	8BB	8BB	8gg	8g
=64	=64	=64	=64	=64	=64	=64	=64	=64	=64	=64	=64
1.r	8c	8C	8C	1.r	4.a	4.a	4.a	[2..C	[2..C	8a	8e
.	8c	8C	8C	.	.	.	.	.	.	8cc	8e
.	8c	8C	8C	.	.	.	.	.	.	8ee	8e
.	8c	8C	8C	.	4.aa	4.aa	4.aa	.	.	8aa	8e
.	8c	8C	8C	.	.	.	.	.	.	8ccc	8e
.	8c	8C	8C	.	.	.	.	.	.	8eee	8e
.	8c	8C	8C	.	4.aa	4.aa	4.aa	.	.	4.aa	8e
.	8c	8C	8C	.	.	.	.	4C]	4C]	.	8e
.	8c	8C	8C	.	.	.	.	.	.	.	8e
.	8c#	8C#	8C#	.	8gg	8gg	8gg	4.C#	4.C#	8gg	8e
.	8c#	8C#	8C#	.	8ff#	8ff#	8ff#	.	.	8ff#	8e
.	8c#	8C#	8C#	.	8gg	8gg	8gg	.	.	8gg	8e
=65	=65	=65	=65	=65	=65	=65	=65	=65	=65	=65	=65
2.g	4d	4D	4D	2.G	1.dd	1.dd	8ff#	4.D	4.D	8ff#	4d
.	.	.	.	.	.	.	8dd	.	.	8dd	.
.	2..r	2..r	2..r	.	.	.	8ff#	.	.	8ff#	2..r
.	.	.	.	.	.	.	8aa	2..r	2..r	8aa	.
.	.	.	.	.	.	.	8ff#	.	.	8ff#	.
.	.	.	.	.	.	.	8aa	.	.	8aa	.
2.r	.	.	.	2.r	.	.	4ddd	.	.	8ddd	.
.	.	.	.	.	.	.	.	.	.	8ddd	.
.	.	.	.	.	.	.	4.r	.	.	8ddd	.
.	4.r	4r	4.r	.	.	.	.	.	.	8ddd	4r
.	.	.	.	.	.	.	.	4r	4r	8ddd	.
.	.	8d	.	.	.	.	8ddd	.	.	8ddd	8f#
=66	=66	=66	=66	=66	=66	=66	=66	=66	=66	=66	=66
2.g	4d	4d	2..r	2.G	[1.ddd	[1.dd	8ccc	2..r	2..r	8ccc	4f#
.	.	.	.	.	.	.	8bb	.	.	8bb	.
.	8e	8e	.	.	.	.	8aa	.	.	8aa	8g
.	4e	4e	.	.	.	.	8gg	.	.	8gg	4g
.	.	.	.	.	.	.	8ff#	.	.	8ff#	.
.	8f#	8f#	.	.	.	.	8ee	.	.	8ee	8a
2r	4f#	4f#	.	2r	.	.	8dd	.	.	8dd	4a
.	.	.	2r	.	.	.	8ee	2r	2r	8ee	.
.	4.r	4.r	.	.	.	.	8dd	.	.	8dd	4.r
.	.	.	.	.	.	.	8cc	.	.	8cc	.
8r	.	.	.	8r	.	.	8b	.	.	8b	.
8cc	8G	8G	8G	8e	.	.	8a	8B	8G	8a	8B
=67	=67	=67	=67	=67	=67	=67	=67	=67	=67	=67	=67
4cc	4G	4G	4G	4e	1.ddd_	1.dd_	8b	4B	4G	8b	4B
.	.	.	.	.	.	.	8cc	.	.	8cc	.
8dd	8A	8A	8A	8g	.	.	8dd	8c	8A	8dd	8c
4dd	4A	4A	4A	4g	.	.	8cc	4c	4A	8cc	4c
.	.	.	.	.	.	.	8b	.	.	8b	.
8ee	8B	8B	8B	8cc	.	.	8a	8d	8B	8a	8d
4ee	4B	4B	4B	4cc	.	.	8g	4d	4B	8g	4d
.	.	.	.	.	.	.	8b	.	.	8b	.
2r	4.r	4.r	4.r	2r	.	.	8dd	2r	2r	8dd	4.r
.	.	.	.	.	.	.	8gg	.	.	8gg	.
.	.	.	.	.	.	.	8bb	.	.	8bb	.
.	8d	8d	8d	.	.	.	8ddd	.	.	8ddd	8f#
=68	=68	=68	=68	=68	=68	=68	=68	=68	=68	=68	=68
2.g	4d	4d	4d	2.G	1.ddd_	1.dd_	8ccc	2..r	2..r	8ccc	4f#
.	.	.	.	.	.	.	8bb	.	.	8bb	.
.	8e	8e	8e	.	.	.	8aa	.	.	8aa	8g
.	4e	4e	4e	.	.	.	8gg	.	.	8gg	4g
.	.	.	.	.	.	.	8ff#	.	.	8ff#	.
.	8f#	8f#	8f#	.	.	.	8ee	.	.	8ee	8a
2r	4f#	4f#	4f#	2r	.	.	8dd	.	.	8dd	4a
.	.	.	.	.	.	.	8ee	2r	2r	8ee	.
.	4.r	4.r	4.r	.	.	.	8dd	.	.	8dd	4.r
.	.	.	.	.	.	.	8cc	.	.	8cc	.
8r	.	.	.	8r	.	.	8b	.	.	8b	.
8cc	8G	8G	8G	8e	.	.	8a	8B	8G	8a	8B
=69	=69	=69	=69	=69	=69	=69	=69	=69	=69	=69	=69
4cc	4G	4G	4G	4e	1.ddd_	1.dd_	8b	4B	4G	8b	4B
.	.	.	.	.	.	.	8cc	.	.	8cc	.
8dd	8A	8A	8A	8g	.	.	8dd	8c	8A	8dd	8c
4dd	4A	4A	4A	4g	.	.	8cc	4c	4A	8cc	4c
.	.	.	.	.	.	.	8b	.	.	8b	.
8ee	8B	8B	8B	8cc	.	.	8a	8d	8B	8a	8d
4ee	4B	4B	4B	4cc	.	.	8g	4d	4B	8g	4d
.	.	.	.	.	.	.	8b	.	.	8b	.
2r	4.r	4.r	2r	2r	.	.	8dd	2r	2r	8dd	4.r
.	.	.	.	.	.	.	8gg	.	.	8gg	.
.	.	.	.	.	.	.	8bb	.	.	8bb	.
.	8d	8d	.	.	.	.	8ddd	.	.	8ddd	8f#
=70	=70	=70	=70	=70	=70	=70	=70	=70	=70	=70	=70
2.g	4d	4d	2..r	2.G	1.ddd]	1.dd_	8ccc	1.r	1.r	8ccc	4f#
.	.	.	.	.	.	.	8bb	.	.	8bb	.
.	8e	8e	.	.	.	.	8aa	.	.	8aa	8g
.	4e	4e	.	.	.	.	8gg	.	.	8gg	4g
.	.	.	.	.	.	.	8ff#	.	.	8ff#	.
.	8f#	8f#	.	.	.	.	8ee	.	.	8ee	8a
2.r	4f#	4f#	.	2.r	.	.	8dd	.	.	8dd	4a
.	.	.	2r	.	.	.	8aa	.	.	8aa	.
.	4.r	4.r	.	.	.	.	8bb	.	.	8bb	4.r
.	.	.	.	.	.	.	8ccc	.	.	8ccc	.
.	.	.	.	.	.	.	8bb	.	.	8bb	.
.	8d	8D	8D	.	.	.	8aa	.	.	8aa	8aa
=71	=71	=71	=71	=71	=71	=71	=71	=71	=71	=71	=71
1.r	8d	8G	8G	1.r	4bb	4dd]	4bb	1.r	1.r	8bb	8bb
.	8d	8G	8G	.	.	.	.	.	.	8dd	8dd
.	8d	8G	8G	.	2..r	2..r	2..r	.	.	8bb	8bb
.	8f#	8D#	8D#	.	.	.	.	.	.	8aa	8aa
.	8f#	8D#	8D#	.	.	.	.	.	.	8b	8b
.	8f#	8D#	8D#	.	.	.	.	.	.	8aa	8aa
.	8B	8E	8E	.	.	.	.	.	.	8gg	8gg
.	8B	8E	8E	.	.	.	.	.	.	8b	8b
.	8B	8E	8E	.	.	.	.	.	.	8gg	8gg
.	8d	8B	8B	.	4.r	4.r	4.r	.	.	8ff	8ff
.	8d	8B	8B	.	.	.	.	.	.	8dd	8dd
.	8d	8B	8B	.	.	.	.	.	.	8ff	8ff
=72	=72	=72	=72	=72	=72	=72	=72	=72	=72	=72	=72
1.r	8e	8c	8c	1.r	1.r	1.r	1.r	1.r	1.r	8ee	8ee
.	8e	8c	8c	.	.	.	.	.	.	8e	8e
.	8e	8c	8c	.	.	.	.	.	.	8ee	8ee
.	8b	8G#	8G#	.	.	.	.	.	.	8dd	8dd
.	8b	8G#	8G#	.	.	.	.	.	.	8e	8e
.	8b	8G#	8G#	.	.	.	.	.	.	8dd	8dd
.	8e	8A	8A	.	.	.	.	.	.	8cc#	8cc#
.	8e	8A	8A	.	.	.	.	.	.	8e	8e
.	8e	8A	8A	.	.	.	.	.	.	8cc#	8cc#
.	8a	8F#	8F#	.	.	.	.	.	.	8cc	8cc
.	8a	8F#	8F#	.	.	.	.	.	.	8d	8d
.	8a	8F#	8F#	.	.	.	.	.	.	8cc	8cc
=73	=73	=73	=73	=73	=73	=73	=73	=73	=73	=73	=73
1.r	8g	8G	8G	1.r	4.bb-	4.bb-	4.bb-	8G	8G	8b-	8b-
.	8b-	8B-	8B-	.	.	.	.	8B-	8B-	8g	8g
.	8g	8G	8G	.	.	.	.	8G	8G	8b-	8b-
.	8f	8F	8F	.	4.aa	4.aa	4.aa	8F	8F	8a	8a
.	8a	8A	8A	.	.	.	.	8A	8A	8f	8f
.	8f	8F	8F	.	.	.	.	8F	8F	8a	8a
.	8e-	8E-	8E-	.	4.gg	4.gg	4.gg	8E-	8E-	8g	8g
.	8g	8G	8G	.	.	.	.	8G	8G	8e-	8e-
.	8e-	8E-	8E-	.	.	.	.	8E-	8E-	8g	8g
.	8d	8D	8D	.	4.ff	4.ff	4.ff	8D	8D	8f	8f
.	8f	8F	8F	.	.	.	.	8F	8F	8d	8d
.	8d	8D	8D	.	.	.	.	8D	8D	8f	8f
=74	=74	=74	=74	=74	=74	=74	=74	=74	=74	=74	=74
1.r	8c	8C	8C	1.r	4.ee-	4.ee-	4.ee-	8C	8C	8e-	8e-
.	8e-	8E-	8E-	.	.	.	.	8E-	8E-	8c	8c
.	8c	8C	8C	.	.	.	.	8C	8C	8e-	8e-
.	8B-	8BB-	8BB-	.	4.dd	4.dd	4.dd	8BB-	8BB-	8d	8d
.	8d	8D	8D	.	.	.	.	8D	8D	8B-	8B-
.	8B-	8BB-	8BB-	.	.	.	.	8BB-	8BB-	8d	8d
.	8A	8AA	8AA	.	4.cc	4.cc	4.cc	8AA	8AA	8c	8c
.	8c	8C	8C	.	.	.	.	8C	8C	8A	8A
.	8A	8AA	8AA	.	.	.	.	8AA	8AA	8c	8c
.	8B-	8BB-	8BB-	.	8b-	8b-	8b-	8BB-	8BB-	8B-	8B-
.	8A	8AA	8AA	.	8a	8a	8a	8AA	8AA	8A	8A
.	8G	8GG	8GG	.	8g	8g	8g	8GG	8GG	8G	8G
=75	=75	=75	=75	=75	=75	=75	=75	=75	=75	=75	=75
4.g	8d	8D	8D	4.G	4.dd	4.dd	4.dd	8D	8D	8d	8d
.	8dd	8d	8d	.	.	.	.	8d	8d	8dd	8dd
.	8d	8D	8D	.	.	.	.	8D	8D	8d	8d
2..r	8e-	8E-	8E-	2..r	4.ee-	4.ee-	4.ee-	8E-	8E-	8e-	8e-
.	8e-	8E-	8E-	.	.	.	.	8E-	8E-	8e-	8e-
.	8e-	8E-	8E-	.	.	.	.	8E-	8E-	8e-	8e-
.	8d	8D	8D	.	4.dd	4.dd	4.dd	8D	8D	8d	8d
.	8dd	8d	8d	.	.	.	.	8d	8d	8dd	8dd
.	8d	8D	8D	.	.	.	.	8D	8D	8d	8d
.	8c#	8C#	8C#	.	4.cc#	4.cc#	4.cc#	8C#	8C#	8c#	8c#
4r	8c#	8C#	8C#	4r	.	.	.	8C#	8C#	8c#	8c#
.	8c#	8C#	8C#	.	.	.	.	8C#	8C#	8c#	8c#
=76	=76	=76	=76	=76	=76	=76	=76	=76	=76	=76	=76
4.g	8d	8D	8D	4.G	4.dd	4.dd	4.dd	8D	8D	8d	8d
.	8dd	8d	8d	.	.	.	.	8d	8d	8dd	8dd
.	8d	8D	8D	.	.	.	.	8D	8D	8d	8d
2..r	8e-	8E-	8E-	2..r	4.ee-	4.ee-	4.ee-	8E-	8E-	8e-	8e-
.	8e-	8E-	8E-	.	.	.	.	8E-	8E-	8e-	8e-
.	8e-	8E-	8E-	.	.	.	.	8E-	8E-	8e-	8e-
.	8d	8D	8D	.	4.dd	4.dd	4.dd	8D	8D	8d	8d
.	8dd	8d	8d	.	.	.	.	8d	8d	8dd	8dd
.	8d	8D	8D	.	.	.	.	8D	8D	8d	8d
.	8c#	8C#	8C#	.	4.cc#	4.cc#	4.cc#	8C#	8C#	8c#	8c#
4r	8c#	8C#	8C#	4r	.	.	.	8C#	8C#	8c#	8c#
.	8c#	8C#	8C#	.	.	.	.	8C#	8C#	8c#	8c#
=77	=77	=77	=77	=77	=77	=77	=77	=77	=77	=77	=77
4.g	8d	8D	8D	4.G	8dd	8dd	8dd	8D	8D	8d	8d
.	8f#	8F#	8F#	.	8ff#	8ff#	8ff#	8F#	8F#	8f#	8f#
.	8g	8G	8G	.	8gg	8gg	8gg	8G	8G	8g	8g
2..r	8a	8A	8A	2..r	8aa	8aa	8aa	8A	8A	8a	8a
.	8b	8B	8B	.	8bb	8bb	8bb	8B	8B	8b	8b
.	8cc#	8c#	8c#	.	8ccc#	8ccc#	8ccc#	8c#	8c#	8cc#	8cc#
.	4dd	4d	4d	.	4ddd	4ddd	4ddd	4d	4d	8dd	4dd
.	.	.	.	.	.	.	.	.	.	8ff#	.
.	2r	2r	2r	.	2r	2r	2r	2r	2r	8gg	2r
.	.	.	.	.	.	.	.	.	.	8aa	.
4r	.	.	.	4r	.	.	.	.	.	8bb	.
.	.	.	.	.	.	.	.	.	.	8ccc#	.
=78	=78	=78	=78	=78	=78	=78	=78	=78	=78	=78	=78
4.g	4d	4D	4D	4.G	4ddd	4ff#	4ddd	4D	4D	4ddd	4ff#
.	8e	8E	8E	.	8ccc#	8gg	8ccc#	8E	8E	8ccc#	8gg
4.r	4e	4E	4E	4.r	4ccc#	4gg	4ccc#	4E	4E	4ccc#	4gg
.	8f#	8F#	8F#	.	8ccc	8aa	8ccc	8F#	8F#	8ccc	8aa
4.dd	4f#	4F#	4F#	4.g	4ccc	4aa	4ccc	4F#	4F#	4ccc	4aa
.	8g	8G	8G	.	8bb	8gg	8bb	8G	8G	8bb	8gg
4.ee	4g	4G	4G	4.cc	4bb	4gg	4bb	4G	4G	4bb	4gg
.	8c	8C	8C	.	8aa	8aa	8aa	8C	8C	8aa	8aa
=79	=79	=79	=79	=79	=79	=79	=79	=79	=79	=79	=79
4.ff	4.c	4.C	4.C	4.dd	8aa	8aa	4.ee	4.C	4.C	8aa	8aa
.	.	.	.	.	8bb	8bb	.	.	.	8bb	8bb
.	.	.	.	.	8ccc	8ccc	.	.	.	8ccc	8ccc
4.dd	4.d	4.D	4.D	4.g	8dd	8dd	8dd	4.D	4.D	8dd	8dd
.	.	.	.	.	8ee	8ee	8ee	.	.	8ee	8ee
.	.	.	.	.	8ff#	8ff#	8ff#	.	.	8ff#	8ff#
4.cc	4G	4GG	4GG	4.e	4gg	4gg	4gg	4GG	4GG	4gg	4gg
.	2r	2r	2r	.	2r	2r	2r	2r	2r	4.r	4.r
4.r	.	.	.	4.r	.	.	.	.	.	.	.
.	.	.	.	.	.	.	.	.	.	8dd	8dd
=80	=80	=80	=80	=80	=80	=80	=80	=80	=80	=80	=80
1.r	1.r	1.r	1.r	1.r	1.r	1.r	1.r	1.r	1.r	4dd	4dd
.	.	.	.	.	.	.	.	.	.	8ee	8cc#
.	.	.	.	.	.	.	.	.	.	4ee	4cc#
.	.	.	.	.	.	.	.	.	.	8ff#	8cc
.	.	.	.	.	.	.	.	.	.	8ff#	4.cc
.	.	.	.	.	.	.	.	.	.	8ddd	.
.	.	.	.	.	.	.	.	.	.	8ddd	.
.	.	.	.	.	.	.	.	.	.	8ddd	4.b
.	.	.	.	.	.	.	.	.	.	8bb	.
.	.	.	.	.	.	.	.	.	.	8gg	.
=81	=81	=81	=81	=81	=81	=81	=81	=81	=81	=81	=81
2.r	2.r	2.r	2.r	2.r	2.r	2.r	2.r	2.r	2.r	8ff#	4.cc
.	.	.	.	.	.	.	.	.	.	8ddd	.
.	.	.	.	.	.	.	.	.	.	8ddd	.
.	.	.	.	.	.	.	.	.	.	8ddd	4.b
.	.	.	.	.	.	.	.	.	.	8bb	.
.	.	.	.	.	.	.	.	.	.	8gg	.
4.dd	8f#	8F#	8F#	4.g	4.ccc	4.aa	[2.ddd	4.F#	4.F#	8ccc 8dd	8aa
.	8f#	8d	8d	.	.	.	.	.	.	8ccc 8dd	8aa
.	8f#	8d	8d	.	.	.	.	.	.	8ccc 8dd	8aa
4.ee	8g	8d	8d	4.cc	4.bb	4.gg	.	4.G	4.G	8bb 8dd	8gg
.	8g	8B	8B	.	.	.	.	.	.	8dd 8bb	8gg
.	8g	8G	8G	.	.	.	.	.	.	8bb 8dd	8gg
=82	=82	=82	=82	=82	=82	=82	=82	=82	=82	=82	=82
4.dd	8f#	8F#	8F#	4.g	4.ccc	4.aa	2.ddd]	4.F#	4.F#	8ccc 8dd	8aa
.	8f#	8d	8d	.	.	.	.	.	.	8ccc 8dd	8aa
.	8f#	8d	8d	.	.	.	.	.	.	8ccc 8dd	8aa
4.ee	8g	8d	8d	4.cc	4.bb	4.gg	.	4.G	4.G	8dd 8bb	8gg
.	8g	8B	8B	.	.	.	.	.	.	8bb 8dd	8gg
.	8g	8G	8G	.	.	.	.	.	.	8bb 8dd	8gg
4.dd	8f#	8F#	8F#	4.g	4.ccc	4.aa	2.ddd	4.F#	4.F#	8ccc 8dd	8aa
.	8f#	8d	8d	.	.	.	.	.	.	8ccc 8dd	8aa
.	8f#	8d	8d	.	.	.	.	.	.	8ccc 8dd	8aa
4.ee	8g	8d	8d	4.cc	4.bb	4.gg	.	4.G	4.G	8bb 8dd	8gg
.	8g	8B	8B	.	.	.	.	.	.	8bb 8dd	8gg
.	8g	8G	8G	.	.	.	.	.	.	8bb 8dd	8gg
=83	=83	=83	=83	=83	=83	=83	=83	=83	=83	=83	=83
2.dd	2.d	2.F#	2.F#	2.g	2.ccc	2.aa	2.ddd	2.F#	2.F#	2..ccc	2.aa
2.r	2.r	2.r	2.r	2.r	2.r	2.r	2.r	2.r	2.r	.	2.r
.	.	.	.	.	.	.	.	.	.	8bb	.
.	.	.	.	.	.	.	.	.	.	8aa	.
.	.	.	.	.	.	.	.	.	.	8gg	.
.	.	.	.	.	.	.	.	.	.	8ff#	.
.	.	.	.	.	.	.	.	.	.	8ee	.
=84	=84	=84	=84	=84	=84	=84	=84	=84	=84	=84	=84
2.r	2.r	2.r	2.r	2.r	2.r	2.r	2.r	2.r	2.r	2.dd	2.r
4r	4r	4r	4r	4r	4r	4r	4r	4r	4r	4cc	4r
2r	2r	2r	2r	2r	2r	2r	2r	2r	2r	2r	2r
=85	=85	=85	=85	=85	=85	=85	=85	=85	=85	=85	=85
2..r	4e	4e	4e	2..r	2..r	2..r	2..r	2..r	2..r	4cc	4g
.	8r	8r	8r	.	.	.	.	.	.	8b	8r
.	4d	4d	4d	.	.	.	.	.	.	4b	4g
.	8r	8r	8r	.	.	.	.	.	.	8a	8r
.	[4.c	[4.c	[4.c	.	.	.	.	.	.	8a	[4.f#
4r	.	.	.	4r	4r	4r	4r	4r	4r	8cc	.
.	.	.	.	.	.	.	.	.	.	8ee	.
4r	4c]	4c]	4c]	4r	4r	4r	4r	4r	4r	4ee	4f#]
8r	8r	8r	8r	8r	8r	8r	8r	8r	8r	8a	8r
=86	=86	=86	=86	=86	=86	=86	=86	=86	=86	=86	=86
1.r	[2c	[2c	[2c	1.r	1.r	1.r	1.r	1.r	1.r	8a	[2f#
.	.	.	.	.	.	.	.	.	.	8cc	.
.	.	.	.	.	.	.	.	.	.	8ee	.
.	.	.	.	.	.	.	.	.	.	4ee	.
.	8c]	8c]	8c]	.	.	.	.	.	.	.	8f#]
.	8B	8B	8B	.	.	.	.	.	.	8dd	8g
.	4c	4c	4c	.	.	.	.	.	.	8dd	4e
.	.	.	.	.	.	.	.	.	.	8cc	.
.	8r	8r	8r	.	.	.	.	.	.	8b	8r
.	4d	4d	4d	.	.	.	.	.	.	8a	4f#
.	.	.	.	.	.	.	.	.	.	8g	.
.	8r	8r	8r	.	.	.	.	.	.	8a	8r
=87	=87	=87	=87	=87	=87	=87	=87	=87	=87	=87	=87
2.r	4.G	4.G	4.G	2.r	2.r	2.r	2.r	2.r	2.r	4.a	2.f#
.	4.r	4.r	4.r	.	.	.	.	.	.	4.a#	.
4.r	4.r	4.r	4.r	4.r	4.r	4.r	4.r	4.r	4.r	4.b	4.g
4.r	4r	4.r	4.r	4.r	4.r	4.r	4.r	4.r	4.r	4r	4r
.	8e	.	.	.	.	.	.	.	.	8cc	8g
=88	=88	=88	=88	=88	=88	=88	=88	=88	=88	=88	=88
1.r	4e	1.r	1.r	1.r	1.r	1.r	1.r	1.r	1.r	4cc	[2.g
.	8f	.	.	.	.	.	.	.	.	8b	.
.	4f	.	.	.	.	.	.	.	.	4b	.
.	8e	.	.	.	.	.	.	.	.	8cc	.
.	4e	.	.	.	.	.	.	.	.	4cc	2.g]
.	8f	.	.	.	.	.	.	.	.	8b	.
.	4f	.	.	.	.	.	.	.	.	4b	.
.	8e	.	.	.	.	.	.	.	.	8cc	.
=89	=89	=89	=89	=89	=89	=89	=89	=89	=89	=89	=89
1.r	4e	2r	1.r	1.r	2r	1.r	1.r	1.r	1.r	4cc	2.g
.	8d	.	.	.	.	.	.	.	.	8b	.
.	4d	.	.	.	.	.	.	.	.	4b	.
.	.	8r	.	.	8r	.	.	.	.	.	.
.	8e	8c#	.	.	8ee	.	.	.	.	8a	.
.	4e	4c#	.	.	4ee	.	.	.	.	2.a	4g
.	8f	8d	.	.	8ff	.	.	.	.	.	8f
.	4f	4d	.	.	4ff	.	.	.	.	.	4f
.	8e	8c#	.	.	8ee	.	.	.	.	.	8g
=90	=90	=90	=90	=90	=90	=90	=90	=90	=90	=90	=90
1.r	4e	4c#	1r	1.r	4ee	2r	2r	1r	1r	[2a	4g
.	8f	8d	.	.	8ff	.	.	.	.	.	8f
.	4f	4d	.	.	4ff	.	.	.	.	.	4f
.	.	.	.	.	.	8r	8r	.	.	8a]	.
.	8d	8c	.	.	8ff#	8dd	8ff#	.	.	8ff#	8a
.	4d	4c	.	.	4ff#	4dd	4ff#	.	.	4ff#	4a
.	8d	8G	8G	.	8gg	8dd	8gg	8G	8G	8gg	8b
.	4d	4G	4G	.	4gg	4dd	4gg	4G	4G	4gg	4b
.	8d	8F#	8F#	.	8aa	8dd	8aa	8F#	8F#	8aa	8cc
=91	=91	=91	=91	=91	=91	=91	=91	=91	=91	=91	=91
1.r	4d	4F#	4F#	1.r	4aa	4dd	4aa	4F#	4F#	4aa	4cc
.	8g	8F	8F	.	8bb	8gg	8bb	8F	8F	8bb	8dd
.	4g	4F	4F	.	4bb	4gg	4bb	4F	4F	4bb	4dd
.	8g	8E	8E	.	8ccc	8gg	8ccc	8E	8E	8ccc	8gg
.	4g	4E	4E	.	4ccc	4gg	4ccc	4E	4E	4ccc	4gg
.	8g	8E-	8E-	.	8ccc#	8gg	8ccc#	8E-	8E-	8ccc#	8gg
.	4g	4E-	4E-	.	4ccc#	4gg	4ccc#	4E-	4E-	4ccc#	4gg
.	8g	8D	8D	.	8ddd	8gg	8ddd	8D	8D	8ddd	8gg
=92	=92	=92	=92	=92	=92	=92	=92	=92	=92	=92	=92
1.r	4.g	4.D	4.D	1.r	4.ddd	[4.gg	4.ddd	4.D	4.D	4.ddd	4.gg
.	4.b-	4.C#	4.C#	.	4.eee	4.gg]	4.eee	4.C#	4.C#	4.eee	4.gg 4.b-
.	4.r	4.r	4.r	.	4.r	4.r	4.r	4.r	4.r	4.r	4.r
.	4.c#	4.C#	4.C#	.	4.cc#	4.cc#	4.cc#	4.C#	4.C#	4.c#	4.c#
=93	=93	=93	=93	=93	=93	=93	=93	=93	=93	=93	=93
[2..ee	8d	8D	8D	[2..cc	4.dd	4.dd	4.dd	8D	8D	8d	8d
.	8g	8G	8G	.	.	.	.	8G	8G	8g	8g
.	8b	8B	8B	.	.	.	.	8B	8B	8b	8b
.	8dd	8d	8d	.	2.r	2.r	2.r	8d	8d	8dd	8dd
.	8b	8B	8B	.	.	.	.	8B	8B	8gg	8gg
.	8g	8G	8G	.	.	.	.	8G	8G	8bb	8bb
.	4.d	4.D	4.D	.	.	.	.	4.D	4.D	4ddd	4.ddd
4ee]	.	.	.	4cc]	.	.	.	.	.	.	.
.	.	.	.	.	.	.	.	.	.	8r	.
4.dd	4.d	4.D	4.D	4.g	4.ff#	4.a	4.ff#	4.D	4.D	4.ff# 4.a 4.d	4.ff# 4.a 4.d
=94	=94	=94	=94	=94	=94	=94	=94	=94	=94	=94	=94
4.cc	8g	8G	8G	4.e	4.gg	4.b	4.gg	8G	8G	8gg	8b
.	8g	8G	8G	.	.	.	.	8G	8G	8b	8g
.	8g	8G	8G	.	.	.	.	8G	8G	8gg	8b
4.dd	8g	8G	8G	4.g	4.aa	4.cc	4.aa	8G	8G	8aa	8cc
.	8g	8G	8G	.	.	.	.	8G	8G	8cc	8a
.	8g	8G	8G	.	.	.	.	8G	8G	8aa	8cc
4.ee	8g	8G	8G	4.cc	4.bb	4.dd	4.bb	8G	8G	8bb	8dd
.	8g	8G	8G	.	.	.	.	8G	8G	8dd	8b
.	8g	8G	8G	.	.	.	.	8G	8G	8bb	8dd
4.dd	8g	8G	8G	4.g	8ccc	8ee	8ccc	8G	8G	8ccc	8ee
.	8g	8G	8G	.	8aa	8cc	8aa	8G	8G	8aa	8cc
.	8g	8G	8G	.	8ff#	8a	8ff#	8G	8G	8ff#	8a
=95	=95	=95	=95	=95	=95	=95	=95	=95	=95	=95	=95
4.cc	8g	8G	8G	4.e	4.gg	4.b	4.gg	8G	8G	8gg	8b
.	8g	8G	8G	.	.	.	.	8G	8G	8b	8g
.	8g	8G	8G	.	.	.	.	8G	8G	8gg	8b
4.dd	8g	8G	8G	4.g	4.aa	4.cc	4.aa	8G	8G	8aa	8cc
.	8g	8G	8G	.	.	.	.	8G	8G	8cc	8a
.	8g	8G	8G	.	.	.	.	8G	8G	8aa	8cc
4.ee	8g	8G	8G	4.cc	4.bb	4.dd	4.bb	8G	8G	8bb	8dd
.	8g	8G	8G	.	.	.	.	8G	8G	8dd	8b
.	8g	8G	8G	.	.	.	.	8G	8G	8bb	8dd
4.dd	8g	8G	8G	4.g	8ccc	8ee	8ccc	8G	8G	8ccc	8ee
.	8g	8G	8G	.	8aa	8cc	8aa	8G	8G	8aa	8cc
.	8g	8G	8G	.	8ff#	8a	8ff#	8G	8G	8ff#	8a
=96	=96	=96	=96	=96	=96	=96	=96	=96	=96	=96	=96
4.cc	4.g	4.G	4.G	4.e	4.gg	4.b	4.gg	4.G	4.G	8bb	4.b
.	.	.	.	.	.	.	.	.	.	8ddd	.
.	.	.	.	.	.	.	.	.	.	8bb	.
4.r	4.r	4.r	4.r	4.r	4.r	4.r	4.r	4.r	4.r	8gg	4.r
.	.	.	.	.	.	.	.	.	.	8dd	.
.	.	.	.	.	.	.	.	.	.	8bb	.
4.cc	4.g	4.G	4.G	4.e	4.gg	4.b	4.gg	4.G	4.G	8dd	4.gg 4.b 4.d
.	.	.	.	.	.	.	.	.	.	8bb	.
.	.	.	.	.	.	.	.	.	.	8gg	.
4.r	4.r	4.r	4.r	4.r	4.r	4.r	4.r	4.r	4.r	8dd	4.r
.	.	.	.	.	.	.	.	.	.	8b	.
.	.	.	.	.	.	.	.	.	.	8gg	.
=97	=97	=97	=97	=97	=97	=97	=97	=97	=97	=97	=97
4.cc	4.g	4.G	4.G	4.e	4.gg	4.b	4.gg	4.G	4.G	8b	4.gg 4.d 4.b
.	.	.	.	.	.	.	.	.	.	8dd	.
.	.	.	.	.	.	.	.	.	.	8b	.
4.r	4.r	4.r	4.r	4.r	4.r	4.r	4.r	4.r	4.r	8g	4.r
.	.	.	.	.	.	.	.	.	.	8d	.
.	.	.	.	.	.	.	.	.	.	8B	.
4.cc	8G	8GG	8GG	4.e	4.gg	4.b	4.gg	8GG	8GG	8G	8G
.	8B	8BB	8BB	.	.	.	.	8BB	8BB	8B	8B
.	8d	8D	8D	.	.	.	.	8D	8D	8d	8d
4.cc	8g	8G	8G	4.e	4.gg	4.b	4.gg	8G	8G	8g	8g
.	8d	8D	8D	.	.	.	.	8D	8D	8b	8b
.	8B	8BB	8BB	.	.	.	.	8BB	8BB	8dd	8dd
=98	=98	=98	=98	=98	=98	=98	=98	=98	=98	=98	=98
4.cc	4.G	4.GG	4.GG	4.e	4.gg	4.b	4.gg	4.GG	4.GG	4.gg	4.gg
4.r	4.r	4.r	4.r	4.r	4.r	4.r	4.r	4.r	4.r	4.r	4.r
4.cc	4.G	4.GG	4.GG	4.e	4.gg	4.b	4.gg	4.GG	4.GG	4.gg 4.b 4.d	4.gg 4.d 4.b
4.cc	4.G	4.GG	4.GG	4.e	4.gg	4.b	4.gg	4.GG	4.GG	4.gg 4.b 4.d	4.gg 4.b 4.d
=99	=99	=99	=99	=99	=99	=99	=99	=99	=99	=99	=99
4.cc	4.G	4.GG	4.GG	4.e	4.gg	4.b	4.gg	4.GG	4.GG	4.gg 4.b 4.d	4.d 4.gg 4.b
2..r	2..r	2..r	2..r	2..r	2..r	2..r	2..r	2..r	2..r	2..r	2..r
4r	4r	4r	4r	4r	4r	4r	4r	4r	4r	4r	4r
==	==	==	==	==	==	==	==	==	==	==	==
*-	*-	*-	*-	*-	*-	*-	*-	*-	*-	*-	*-
!!!RWG1: This file contains only pitch and duration data.
!!!RWG2: Transposing instruments are not transposed.
!!!RWG3: Spines may have incompatible meters.
!!!RWG4: Durations of rests and tied notes may be interpreted.
!!!RWG: Key is interpreted using the Humdrum key tool.
!!!OPT: La Poule
!!!AFT: stage1
!!!END: 1997/04/15
!!format changes:
!!content changes:
!!public access: complete
!!!KEY: 3754877619
!!!EMD: Converted from MuseData to Humdrum Dec 16, 2000, by Andreas Kornstaedt using muse2kern.
